!!!!SEGMENT: pl-wtm--r-1152-1_dobrzynski-ignacy-feliks--spiewka-o-ponczu-op-16.krn
!!!cenid: 18xx:1756
!!!COM: Dobrzyński, Ignacy Feliks
!!!COM-rismid: pe30020642
!!!CDT: 1807/02/15-1867/10/09
!!!CNT: Polish
!!!OTL: Śpiewka o ponczu op. 16
!!!PDT: 1849
!!!AGN: Secular
!!!SMS-siglum: PL-Wtm
!!!SMS-shelfmark: R 1152/1
!!!SMS-shelfwork: W
!!!SMS-variant:
!!!SMS-altvar:
!!!NIFC-rismid: 1001057996
!!!URL-scan: http://repozytorium.nifc.pl/skany/pl-wtm-nut--r1152-1
!!!ONB-nifc: UWAGA: na podstawie partytury
!!!AIN: 2 empty 1 forte 2 tenor
!!!key:
**kern	**kern	**dynam	**kern	**text	**dynam	**kern	**text	**dynam	**kern	**text	**dynam	**kern	**text	**dynam
*part5	*part5	*part5	*part4	*part4	*part4	*part3	*part3	*part3	*part2	*part2	*part2	*part1	*part1	*part1
*staff6	*staff5	*	*staff4	*staff4	*	*staff3	*staff3	*	*staff2	*staff2	*	*staff1	*staff1	*
*Iforte	*Iempty	*	*Iempty	*	*	*Iempty	*	*	*Itenor	*	*	*Itenor	*	*
*I"Forte piano	*	*	*I"Baſso 2.	*	*	*I"Baſso 1.	*	*	*I"Tenore 2.	*	*	*I"Tenore 1º.	*	*
*I'pf	*	*	*I'B 2	*	*	*I'B 1	*	*	*I'T 2	*	*	*I'T 1	*	*
*clefF4	*clefG2	*	*clefF4	*	*	*clefF4	*	*	*clefG2	*	*	*clefG2	*	*
*	*	*	*	*	*	*	*	*	*ITrd7c12	*	*	*ITrd7c12	*	*
*k[f#c#]	*k[f#c#]	*	*k[f#c#]	*	*	*k[f#c#]	*	*	*k[f#c#]	*	*	*k[f#c#]	*	*
*D:	*D:	*	*D:	*	*	*D:	*	*	*D:	*	*	*D:	*	*
*M6/8	*M6/8	*	*M6/8	*	*	*M6/8	*	*	*M6/8	*	*	*M6/8	*	*
*>[A,B,B1,B,B2,C,C,D]	*>[A,B,B1,B,B2,C,C,D]	*	*>[A,B,B1,B,B2,C,C,D]	*	*	*>[A,B,B1,B,B2,C,C,D]	*	*	*>[A,B,B1,B,B2,C,C,D]	*	*	*>[A,B,B1,B,B2,C,C,D]	*	*
=1	=1	=1	=1	=1	=1	=1	=1	=1	=1	=1	=1	=1	=1	=1
*>A	*>A	*	*>A	*	*	*>A	*	*	*>A	*	*	*>A	*	*
!	!	!	!	!	!	!	!	!	!	!	!	!LO:TX:i:a:t=Vivace	!	!
4d: 4A: 4F#: 4D:\	4ddd: 4aa: 4ff#: 4dd:\	.	2.r	.	.	2.r	.	.	2.r	.	.	2.r	.	.
8r	8r	.	.	.	.	.	.	.	.	.	.	.	.	.
4A: 4E: 4C#: 4AA:\	4aaa: 4eee: 4ccc#: 4aa:\	.	.	.	.	.	.	.	.	.	.	.	.	.
8r	8r	.	.	.	.	.	.	.	.	.	.	.	.	.
=2	=2	=2	=2	=2	=2	=2	=2	=2	=2	=2	=2	=2	=2	=2
4d: 4A: 4F#: 4D:\	4fff#: 4ddd: 4aa: 4ff#:\	.	2.r	.	.	2.r	.	.	2.r	.	.	2.r	.	.
8r	8r	.	.	.	.	.	.	.	.	.	.	.	.	.
4A: 4E: 4C#: 4AA:\	4eee: 4ccc#: 4aa: 4ee:\	.	.	.	.	.	.	.	.	.	.	.	.	.
8r	8r	.	.	.	.	.	.	.	.	.	.	.	.	.
=3	=3	=3	=3	=3	=3	=3	=3	=3	=3	=3	=3	=3	=3	=3
4d: 4A: 4F#: 4D:\	4ddd: 4aa: 4ff#: 4dd:\	.	2.r	.	.	2.r	.	.	2.r	.	.	2.r	.	.
8r	8r	.	.	.	.	.	.	.	.	.	.	.	.	.
4G: 4D: 4BB: 4GG:\	4ggg\ 4ddd\ 4bb\ 4gg\	.	.	.	.	.	.	.	.	.	.	.	.	.
8r	8r	.	.	.	.	.	.	.	.	.	.	.	.	.
=4	=4	=4	=4	=4	=4	=4	=4	=4	=4	=4	=4	=4	=4	=4
4d: 4A: 4F#: 4D:\	4fff#: 4ddd: 4aa: 4ff#:\	.	2.r	.	.	2.r	.	.	2.r	.	.	2.r	.	.
8r	8r	.	.	.	.	.	.	.	.	.	.	.	.	.
4A: 4E: 4C#: 4AA:\	4eee: 4ccc#: 4aa: 4ee:\	.	.	.	.	.	.	.	.	.	.	.	.	.
8r	8r	.	.	.	.	.	.	.	.	.	.	.	.	.
=5	=5	=5	=5	=5	=5	=5	=5	=5	=5	=5	=5	=5	=5	=5
4d: 4A: 4F#: 4D:\	4ddd: 4aa: 4ff#: 4dd:\	.	2.r	.	.	2.r	.	.	2.r	.	.	2.r	.	.
8r	8r	.	.	.	.	.	.	.	.	.	.	.	.	.
4A: 4E: 4C#: 4AA:\	4aaa: 4eee: 4ccc#: 4aa:\	.	.	.	.	.	.	.	.	.	.	.	.	.
8r	8r	.	.	.	.	.	.	.	.	.	.	.	.	.
=6	=6	=6	=6	=6	=6	=6	=6	=6	=6	=6	=6	=6	=6	=6
4d:\ 4A:\ 4F#:\ 4D:\	4fff#: 4ddd: 4aa: 4ff#:\	.	2.r	.	.	2.r	.	.	2.r	.	.	2.r	.	.
8r	8r	.	.	.	.	.	.	.	.	.	.	.	.	.
4B:\ 4F#:\ 4D:\ 4BB:\	4fff#: 4ddd: 4bb: 4ff#:\	.	.	.	.	.	.	.	.	.	.	.	.	.
8r	8r	.	.	.	.	.	.	.	.	.	.	.	.	.
=7	=7	=7	=7	=7	=7	=7	=7	=7	=7	=7	=7	=7	=7	=7
4G:\ 4D:\ 4BB:\ 4GG:\	4ggg: 4ddd: 4bb: 4gg:\	.	2.r	.	.	2.r	.	.	2.r	.	.	2.r	.	.
8r	8r	.	.	.	.	.	.	.	.	.	.	.	.	.
4E:/ 4BB:/ 4GG:/ 4EE:/	4ggg: 4eee: 4bb: 4gg:\	.	.	.	.	.	.	.	.	.	.	.	.	.
8r	8r	.	.	.	.	.	.	.	.	.	.	.	.	.
!!LO:LB:g=original
=8	=8	=8	=8	=8	=8	=8	=8	=8	=8	=8	=8	=8	=8	=8
4A: 4E: 4C#: 4AA:\	4eee 4ccc# 4aa 4ee\	.	2.r	.	.	2.r	.	.	2.r	.	.	2.r	.	.
8r	8r	.	.	.	.	.	.	.	.	.	.	.	.	.
4d 4A 4F# 4D\	4ddd 4aa 4ff# 4dd\	.	.	.	.	.	.	.	.	.	.	.	.	.
8r	8r	.	.	.	.	.	.	.	.	.	.	.	.	.
=9	=9	=9	=9	=9	=9	=9	=9	=9	=9	=9	=9	=9	=9	=9
*	*	*	*	*ij	*	*	*ij	*	*	*ij	*	*	*	*
!	!	!LO:DY:b:rj	!	!	!	!	!	!LO:DY:b:rj	!	!	!	!	!	!LO:DY:b:rj
8AL 8D\	8ddL 8a 8f#/	f	8D\	Czte-	.	8F#\	Czte-	f	8A/	Czte-	.	8d\	Czte-	f
8A 8D\	8dd 8a 8f#/	.	8D\	-ry	.	8F#\	-ry	.	8A/	-ry	.	8d\	-ry	.
8AJ 8D\	8ddJ 8a 8f#/	.	8D\	ży-	.	8F#\	ży-	.	8A/	ży-	.	8d\	ży-	.
4A 4AA\	4ee 4cc# 4a\	.	4A\	-wio-	.	4A\	-wio-	.	4c#\	-wio-	.	4e\	-wio-	.
8A 8AA\	8ee 8cc# 8a\	.	8A\	-ły	.	8A\	-ły	.	8c#\	-ły	.	8e\	-ły	.
=10	=10	=10	=10	=10	=10	=10	=10	=10	=10	=10	=10	=10	=10	=10
*tremolo	*	*	*	*	*	*	*	*	*	*	*	*	*	*
8A 8AA\L	8eeL 8cc# 8a\	.	8A\	przez	.	8A\	przez	.	8c#\	przez	.	8e\	przez	.
8A 8AA\	8ff# 8dd 8a\	.	8A\	wier-	.	8A\	wier-	.	8d\	wier-	.	8f#\	wier-	.
8A 8AA\J	8ggJ 8ee 8a\	.	8A\	-ny	.	8A\	-ny	.	8e\	-ny	.	8g\	-ny	.
*Xtremolo	*	*	*	*	*	*	*	*	*	*	*	*	*	*
4.A 4.D\	4.ff# 4.dd 4.a\	.	4.D\	zbrat	.	4.A\	zbrat	.	4.d\	zbrat	.	4.f#\	zbrat	.
=11	=11	=11	=11	=11	=11	=11	=11	=11	=11	=11	=11	=11	=11	=11
*tremolo	*tremolo	*	*	*	*	*	*	*	*	*	*	*	*	*
8E 8EE/L	8ee 8b 8g#X\L	.	8E\	two-	.	8G#X\	two-	.	8d\	two-	.	8e\	two-	.
8E 8EE/	8ee 8b 8g#X\	.	8E\	-rzą	.	8G#\	-rzą	.	8d\	-rzą	.	8e\	-rzą	.
8E 8EE/J	8ee 8b 8g#X\J	.	8E\	wszech-	.	8G#\	wszech-	.	8d\	wszech-	.	8e\	wszech-	.
*	*Xtremolo	*	*	*	*	*	*	*	*	*	*	*	*	*
4A 4AA\	4ee 4cc# 4a\	.	4AA/	-ży-	.	4A\	-ży-	.	4c#\	-ży-	.	4e\	-ży-	.
8C#/	8cc# 8a 8e/	.	8C#/	-cie	.	8E\	-cie	.	8A/	-cie	.	8c#\	-cie	.
=12	=12	=12	=12	=12	=12	=12	=12	=12	=12	=12	=12	=12	=12	=12
8E\L	8bL 8g#X 8d/	.	8E\	bu-	.	8E\	bu-	.	8G#X/	bu-	.	8B\	bu-	.
8E\	8cc# 8g# 8d/	.	8E\	-du-	.	8E\	-du-	.	8G#/	-du-	.	8c#\	-du-	.
8E\J	8bJ 8g# 8d/	.	8E\	-ją	.	8E\	-ją	.	8G#/	-ją	.	8B\	-ją	.
4AA/	4a 4e 4c#/	.	4AA/	świat	.	4A\	świat	.	4A/	świat	.	4A/	świat	.
8r	8r	.	8r	.	.	8r	.	.	8r	.	.	8r	.	.
!!LO:PB:g=original
=13	=13	=13	=13	=13	=13	=13	=13	=13	=13	=13	=13	=13	=13	=13
*	*tremolo	*	*	*	*	*	*	*	*	*	*	*	*	*
8D 8DD/L	8dd 8a 8f#/L	.	8D\	czte-	.	8F#\	czte-	.	8A/	czte-	.	8d\	czte-	.
8D 8DD/	8dd 8a 8f#/	.	8D\	-ry	.	8F#\	-ry	.	8A/	-ry	.	8d\	-ry	.
8D 8DD/J	8dd 8a 8f#/J	.	8D\	ży-	.	8F#\	ży-	.	8A/	ży-	.	8d\	ży-	.
*	*Xtremolo	*	*	*	*	*	*	*	*	*	*	*	*	*
4G 4GG/	4dd 4b 4g/	.	4G\	-wio-	.	4G\	-wio-	.	4B/	-wio-	.	4d\	-wio-	.
8D 8DD/	8dd 8a 8f#/	.	8D\	-ły	.	8F#\	-ły	.	8A/	-ły	.	8d\	-ły	.
=14	=14	=14	=14	=14	=14	=14	=14	=14	=14	=14	=14	=14	=14	=14
8G 8GG/L	8ddL 8b 8g\	.	8G\	przez	.	8G\	przez	.	8B\	przez	.	8d\	przez	.
8G 8GG/	8dd 8b\	.	8G\	wier-	.	8B\	wier-	.	8B\	wier-	.	8d\	wier-	.
8G 8GG/J	8eeJ 8b\	.	8G\	-ny	.	8B\	-ny	.	8B\	-ny	.	8e\	-ny	.
4.F# 4.FF#/	4.ff# 4.cc# 4.a#X\	.	4.F#\	zbrat	.	4.A#X\	zbrat	.	4.c#X\	zbrat	.	4.f#\	zbrat	.
=15	=15	=15	=15	=15	=15	=15	=15	=15	=15	=15	=15	=15	=15	=15
.	(<8qee/	.	.	.	.	.	.	.	.	.	.	8qe/	.	.
*	*^	*	*	*	*	*	*	*	*	*	*	*	*	*
*	*	*tremolo	*	*	*	*	*	*	*	*	*	*	*	*	*
8BB/L	8dd#X/L)	8b 8f#\L	.	8BB/	two-	.	8An\	two-	.	8B\	two-	.	8d#X\	two-	.
8BB/	8cc#/	8b 8f#\	.	8BB/	-rzą	.	8A\	-rzą	.	8B\	-rzą	.	8c#X\	-rzą	.
8BB/J	8dd#/J	8b 8f#\J	.	8BB/	wszech-	.	8A\	wszech-	.	8B\	wszech-	.	8d#\	wszech-	.
*	*	*Xtremolo	*	*	*	*	*	*	*	*	*	*	*	*	*
4E 4EE/	4ee/	4b 4g\	.	4E\	-ży-	.	4G\	-ży-	.	4B\	-ży-	.	4e\	-ży-	.
8G 8GG/	8ddn/	8b 8g\	.	8E\	-cie	.	8G\	-cie	.	8B\	-cie	.	8dn\	-cie	.
=16	=16	=16	=16	=16	=16	=16	=16	=16	=16	=16	=16	=16	=16	=16	=16
*	*	*	*	*	*	*	*^	*	*	*	*	*	*^	*	*
*	*	*tremolo	*	*	*	*	*	*	*	*	*	*	*	*	*	*	*
8A 8AA\L	8cc#/L	8a 8e\L	.	8AA/	bu-	.	2ryy	8G\	bu-	.	8A/	bu-	.	2ryy	8c#X\	bu-	.
8A 8AA\	8b/	8a 8e\	.	8AA/	-du-	.	.	8G\	-du-	.	8A/	-du-	.	.	8B\	-du-	.
8A 8AA\J	8cc#/J	8a 8e\J	.	8AA/	-ją	.	.	8G\	-ją	.	8A/	-ją	.	.	8c#\	-ją	.
4A 4D\	4dd/	4a 4f#\	.	4D\	świat	.	.	4F#\	świat	.	4A/	świat	.	.	4d\	świat	.
*	*	*	*	*	*Xij	*	*	*	*Xij	*	*	*Xij	*	*	*	*	*
.	.	.	.	.	.	.	8.rA	.	.	.	.	.	.	8.rff	.	.	.
8r	8r	8ryy	.	8r	.	.	.	8rD	.	.	8r	.	.	.	8ra	.	.
.	.	.	.	.	.	.	16c#/	.	z gwia-	.	.	.	.	16e/	.	z gwia-	.
*	*	*	*	*	*	*	*v	*v	*	*	*	*	*	*	*	*	*
*	*v	*v	*	*	*	*	*	*	*	*	*	*	*v	*v	*	*
!!LO:LB:g=original
=17	=17	=17	=17	=17	=17	=17	=17	=17	=17	=17	=17	=17	=17	=17
!	!	!	!	!	!	!LO:SIC:l:v:s=-ździ-	!	!	!	!	!	!LO:TX:i:a:t=Solo	!	!
!	!LO:TX:b:i:t=dol.	!LO:DY:b:rj	!	!	!	!LO:TX:i:a:t=Solo	!	!	!	!	!	!LO:SIC:l:v:s=-ździ-	!	!
!	!	!	!	!	!	!LO:TX:b:i:t=dol.	!	!LO:DY:b:t=p.:rj	!	!	!	!LO:TX:b:i:t=dol.	!	!LO:DY:b:rj
8AA\L	4.ee 4.cc#\	p	2.r	.	.	4.c#	-zdzi-	p	2.r	.	.	4.e\	-zdi-	p
8E\	.	.	.	.	.	.	.	.	.	.	.	.	.	.
8G\J	.	.	.	.	.	.	.	.	.	.	.	.	.	.
*rep	*	*	*	*	*	*	*	*	*	*	*	*	*	*
8AA\L	(>8dd#XL 8b#X\	.	.	.	.	(>8B#X\L	.	.	.	.	.	(>8d#X\L	.	.
8E\	8ee 8cc#\	.	.	.	.	8c#\J)	.	.	.	.	.	8e\J)	.	.
8G\J	8ff#J 8dd#\)	.	.	.	.	8d\	-stych	.	.	.	.	8f#\	-stych	.
*Xrep	*	*	*	*	*	*	*	*	*	*	*	*	*	*
=18	=18	=18	=18	=18	=18	=18	=18	=18	=18	=18	=18	=18	=18	=18
*rep	*	*	*	*	*	*	*	*	*	*	*	*	*	*
!LO:TX:a:t=P:global:problem=repetycje bez oznaczeń cyfrowych	!	!	!	!	!	!	!	!	!	!	!	!	!	!
8AA\L	4.ee 4.cc#\	.	2.r	.	.	4.c#\	cy-	.	2.r	.	.	4.e\	cy-	.
8E\	.	.	.	.	.	.	.	.	.	.	.	.	.	.
8G\J	.	.	.	.	.	.	.	.	.	.	.	.	.	.
8AA\L	4.cc# 4.a\	.	.	.	.	4.A\	-tryn	.	.	.	.	4.c#\	-tryn	.
8E\	.	.	.	.	.	.	.	.	.	.	.	.	.	.
8G\J	.	.	.	.	.	.	.	.	.	.	.	.	.	.
*Xrep	*	*	*	*	*	*	*	*	*	*	*	*	*	*
=19	=19	=19	=19	=19	=19	=19	=19	=19	=19	=19	=19	=19	=19	=19
8EE/L	4.b 4.g#X/	.	2.r	.	.	4.G#X\	tłocz	.	2.r	.	.	4.B\	tłocz	.
8BB/	.	.	.	.	.	.	.	.	.	.	.	.	.	.
8E/J	.	.	.	.	.	.	.	.	.	.	.	.	.	.
*rep	*	*	*	*	*	*	*	*	*	*	*	*	*	*
8EE/L	(<8a#XL 8f##X/	.	.	.	.	(>8F##X\L	so-	.	.	.	.	(>8A#X\L	so-	.
8BB/	8b 8g#/	.	.	.	.	8G#\J)	.	.	.	.	.	8B\J)	.	.
8E/J	8cc#J 8a#/)	.	.	.	.	8A\	-ku	.	.	.	.	8c#\	-ku	.
*Xrep	*	*	*	*	*	*	*	*	*	*	*	*	*	*
=20	=20	=20	=20	=20	=20	=20	=20	=20	=20	=20	=20	=20	=20	=20
*rep	*	*	*	*	*	*	*	*	*	*	*	*	*	*
8EE/L	4.b 4.g/	.	2.r	.	.	4.G#X\	plon	.	2.r	.	.	4.B\	plon	.
8BB/	.	.	.	.	.	.	.	.	.	.	.	.	.	.
8E/J	.	.	.	.	.	.	.	.	.	.	.	.	.	.
8EE/L	4r	.	.	.	.	4r	.	.	.	.	.	4r	.	.
8BB/	.	.	.	.	.	.	.	.	.	.	.	.	.	.
8E/J	8r	.	.	.	.	8r	.	.	.	.	.	8r	.	.
*Xrep	*	*	*	*	*	*	*	*	*	*	*	*	*	*
=21	=21	=21	=21	=21	=21	=21	=21	=21	=21	=21	=21	=21	=21	=21
*	*	*	*	*	*	*	*ij	*	*	*	*	*	*	*
!	!	!	!	!	!	!	!	!	!	!	!	!	!	!LO:HP:b
8AA/L	(>4.cc# 4.a\	.	2.r	.	.	4.A\	ży-	.	2.r	.	.	4.c#\	ży-	<
8E/	.	<	.	.	.	.	.	.	.	.	.	.	.	.
!	!	!	!	!	!	!	!	!LO:HP:a	!	!	!	!	!	!
8A/J	.	.	.	.	.	.	.	<	.	.	.	.	.	.
*rep	*	*	*	*	*	*	*	*	*	*	*	*	*	*
8AA/L	4dd 4b\	.	.	.	.	4B\	-cie	.	.	.	.	4d\	-cie	.
8E/	.	.	.	.	.	.	.	.	.	.	.	.	.	.
8A/J	8ee 8cc#\	[[	.	.	.	8c#\	też	[[	.	.	.	8e\	też	[[
*Xrep	*	*	*	*	*	*	*	*	*	*	*	*	*	*
=22	=22	=22	=22	=22	=22	=22	=22	=22	=22	=22	=22	=22	=22	=22
8D\L	4.ff# 4.dd\)	.	2.r	.	.	4.d\	ją-	.	2.r	.	.	4.f#\	ją-	.
8A\	.	.	.	.	.	.	.	.	.	.	.	.	.	.
8d\J	.	.	.	.	.	.	.	.	.	.	.	.	.	.
*rep	*	*	*	*	*	*	*	*	*	*	*	*	*	*
8D\L	4ff# 4dd\	.	.	.	.	4.A\	-dro	.	.	.	.	4.f#\	-dro	.
8A\	.	.	.	.	.	.	.	.	.	.	.	.	.	.
8d\J	8r	.	.	.	.	.	.	.	.	.	.	.	.	.
*Xrep	*	*	*	*	*	*	*	*	*	*	*	*	*	*
=23	=23	=23	=23	=23	=23	=23	=23	=23	=23	=23	=23	=23	=23	=23
8D\L	4.b#X 4.f#^>/	.	2.r	.	.	4.F#^>\	cier-	.	2.r	.	.	4.B#X^>\	cier-	.
8F#\	.	.	.	.	.	.	.	.	.	.	.	.	.	.
8A\J	.	.	.	.	.	.	.	.	.	.	.	.	.	.
8D\L	4b# 4f#/	.	.	.	.	4F#\	-pkie	.	.	.	.	4B#\	-pkie	.
8F#\	.	.	.	.	.	.	.	.	.	.	.	.	.	.
8G#X\J	8b# 8f#/	.	.	.	.	8F#\	jak	.	.	.	.	8B#\	jak	.
!!LO:PB:g=original
=24	=24	=24	=24	=24	=24	=24	=24	=24	=24	=24	=24	=24	=24	=24
*^	*	*	*	*	*	*	*	*	*	*	*	*	*	*
4.C#/	8C#\L	4.cc# 4.e#X/	.	2.ryy	.	.	4E#X\	on	.	2.ryy	.	.	4c#\	on	.
.	8E#X\	.	.	.	.	.	.	.	.	.	.	.	.	.	.
.	8G#X\J	.	.	.	.	.	8r	.	.	.	.	.	8r	.	.
!	!	!LO:S:s=1:note:problem=note-level slur	!	!	!	!	!	!	!	!	!	!	!	!	!
!	!	!LO:S:s=2:note:problem=note-level slur	!	!	!	!	!	!	!	!	!	!	!	!	!
4.BB/	8BB\L	(>4.dd (>4.g#X [<4.en/	.	.	.	.	4r	.	.	.	.	.	4r	.	.
.	8En\	.	.	.	.	.	.	.	.	.	.	.	.	.	.
.	8B\J	.	.	.	.	.	8r	.	.	.	.	.	8r	.	.
*v	*v	*	*	*	*	*	*	*	*	*	*	*	*	*	*
=25	=25	=25	=25	=25	=25	=25	=25	=25	=25	=25	=25	=25	=25	=25
!	!LO:S:s=1:note:problem=note-level slur	!	!	!	!	!	!	!	!	!	!	!	!	!
!	!LO:S:s=2:note:problem=note-level slur	!	!	!	!	!	!	!	!	!	!	!	!	!
4AA/	8cc#L) 8a) 8e/]	.	2.ryy	.	.	4.c#\	tóż	.	2.ryy	.	.	4.e\	toż	.
.	8cc# 8a/	.	.	.	.	.	.	.	.	.	.	.	.	.
8r	8e/J	.	.	.	.	.	.	.	.	.	.	.	.	.
4A 4AA/	8r	.	.	.	.	(>8B#X\L	ko-	.	.	.	.	(>8d#X\L	ko-	.
.	(>8ccc#^<L 8aa\	.	.	.	.	8c#\J)	.	.	.	.	.	8e\J)	.	.
8r	8ee\J)	.	.	.	.	8d\	-ją-	.	.	.	.	8f#\	-ją-	.
=26	=26	=26	=26	=26	=26	=26	=26	=26	=26	=26	=26	=26	=26	=26
4AA 4AAA/	8r	.	2.ryy	.	.	4.c#\	-ce-	.	2.ryy	.	.	4.e\	-ce-	.
.	8cc#L 8a^>/	.	.	.	.	.	.	.	.	.	.	.	.	.
8r	8e/J	.	.	.	.	.	.	.	.	.	.	.	.	.
4A 4AA/	8r	.	.	.	.	4A\	-go	.	.	.	.	4c#\	-go	.
.	(>8ccc#L 8aa\	.	.	.	.	.	.	.	.	.	.	.	.	.
8r	8ee\J)	.	.	.	.	8A\	ka-	.	.	.	.	8c#\	ka-	.
=27	=27	=27	=27	=27	=27	=27	=27	=27	=27	=27	=27	=27	=27	=27
(>4.E 4.EE/	8r	.	2.ryy	.	.	[>4.G#X\	-na-	.	2.ryy	.	.	4.B\	-na-	.
.	(>8bbL 8gg#X\	.	.	.	.	.	.	.	.	.	.	.	.	.
.	8dd\J)	.	.	.	.	.	.	.	.	.	.	.	.	.
!LO:N:vis=4	!	!	!	!	!	!	!	!	!	!	!	!	!	!
4.E#X 4.EE#X/	8r	.	.	.	.	4G#\]	.	.	.	.	.	4c#\	.	.
.	(<8bL 8g#X^>/	.	.	.	.	.	.	.	.	.	.	.	.	.
.	8d/J)	.	.	.	.	8G#\	-ru	.	.	.	.	8B\	-ru	.
=28	=28	=28	=28	=28	=28	=28	=28	=28	=28	=28	=28	=28	=28	=28
4F# 4FF#/)	8r	.	2.ryy	.	.	4F#\	bierz	.	2.ryy	.	.	4A\	bierz	.
.	(<8aL 8f#/	.	.	.	.	.	.	.	.	.	.	.	.	.
8r	8c#/J)	.	.	.	.	4r	.	.	.	.	.	4r	.	.
4F# 4FF#/	8r	.	.	.	.	.	.	.	.	.	.	.	.	.
.	(>8aaL 8ff#\	.	.	.	.	8r	.	.	.	.	.	8r	.	.
8r	8cc#\J)	.	.	.	.	8F#\	i	.	.	.	.	8A\	i	.
=29	=29	=29	=29	=29	=29	=29	=29	=29	=29	=29	=29	=29	=29	=29
4D#X 4DD#X/	8r	.	2.ryy	.	.	[>4.D#X\	żar	.	2.ryy	.	.	(<4.A/	żar	.
.	(>8aaL 8ff#\	.	.	.	.	.	.	.	.	.	.	.	.	.
8r	8ccn\J)	.	.	.	.	.	.	.	.	.	.	.	.	.
4D# 4DD#/	8r	.	.	.	.	4D#\]	.	.	.	.	.	4G#X/)	.	.
.	8aL 8f#/	.	.	.	.	.	.	.	.	.	.	.	.	.
8r	8cn/J	.	.	.	.	8D#\	po-	.	.	.	.	8F#/	po-	.
=30	=30	=30	=30	=30	=30	=30	=30	=30	=30	=30	=30	=30	=30	=30
4E 4EE/	8r	.	2.ryy	.	.	4.E\	-skra-	.	2.ryy	.	.	(<4E/	-skra-	.
.	8aL 8e/	.	.	.	.	.	.	.	.	.	.	.	.	.
8r	8c#/J	.	.	.	.	.	.	.	.	.	.	8F#/)	.	.
4E\	8r	.	.	.	.	4E\	-miaj	.	.	.	.	(<4G#X/	-miaj	.
.	(>8aaL 8ee\	.	.	.	.	.	.	.	.	.	.	.	.	.
8r	8cc#\J)	.	.	.	.	8E\	i	.	.	.	.	8A/)	i	.
!!LO:LB:g=original
=31	=31	=31	=31	=31	=31	=31	=31	=31	=31	=31	=31	=31	=31	=31
4EE/	8r	.	2.r	.	.	(>4.D\	o-	.	2.r	.	.	(>4.B\	o-	.
.	(>8eeeL 8bb 8gg#X\	.	.	.	.	.	.	.	.	.	.	.	.	.
8r	8ee\J)	.	.	.	.	.	.	.	.	.	.	.	.	.
4E 4EE/	8r	.	.	.	.	4E^>\)	.	.	.	.	.	4c#^>\)	.	.
.	(<8eeL 8b 8g#X/	.	.	.	.	.	.	.	.	.	.	.	.	.
8r	8e/J)	.	.	.	.	8D\	-strość	.	.	.	.	8B\	-strość	.
=32	=32	=32	=32	=32	=32	=32	=32	=32	=32	=32	=32	=32	=32	=32
8AA/	8a 8c#/	.	2.r	.	.	4C#/	smierz	.	2.r	.	.	4A\	smierz	.
8AL 8AA/	8aaL 8a\	<	.	.	.	.	.	.	.	.	.	.	.	.
8B-XJ 8BB-X/	8bb-XJ 8b-X\	.	.	.	.	8r	.	.	.	.	.	8r	.	.
8BnL 8BBn\	8bbnL 8bn\	.	.	.	.	4r	.	.	.	.	.	4r	.	.
8cn 8Cn\	8cccn 8ccn\	.	.	.	.	.	.	.	.	.	.	.	.	.
8c#XJ 8C#X\	8ccc#XJ 8cc#X\	[	.	.	.	8r	.	.	.	.	.	8r	.	.
*Xtremolo	*	*	*	*	*	*	*	*	*	*	*	*	*	*
=33	=33	=33	=33	=33	=33	=33	=33	=33	=33	=33	=33	=33	=33	=33
*	*	*	*	*ij	*	*	*	*	*	*ij	*	*	*	*
!	!	!	!	!	!	!LO:TX:i:a:t=Tutti	!	!LO:DY:b	!	!	!	!LO:TX:i:a:t=Tutti	!	!LO:DY:b:rj
8d 8D\	4ddd 4dd\	f	8D\	czte-	.	8F#\	czte-	f	8A/	czte-	.	8d\	czte-	f
8DL 8DD/	.	.	8D\	-ry	.	8F#\	-ry	.	8A/	-ry	.	8d\	-ry	.
8DJ 8DD/	8r	.	8D\	ży-	.	8F#\	ży-	.	8A/	ży-	.	8d\	ży-	.
4A 4AA/	(>16aa\LL	.	4A\	-wio-	.	4A\	-wio-	.	4c#\	-wio-	.	4e\	-wio-	.
.	16gg#X\	.	.	.	.	.	.	.	.	.	.	.	.	.
.	16aa\	.	.	.	.	.	.	.	.	.	.	.	.	.
.	16gg#\J	.	.	.	.	.	.	.	.	.	.	.	.	.
8A 8AA/	8aa\J)	.	8A\	-ły	.	8A\	-ły	.	8c#\	-ły	.	8e\	-ły	.
=34	=34	=34	=34	=34	=34	=34	=34	=34	=34	=34	=34	=34	=34	=34
*tremolo	*	*	*	*	*	*	*	*	*	*	*	*	*	*
8A 8AA/L	4r	.	8A\	przez	.	8A\	przez	.	8c#\	przez	.	8e\	przez	.
8A 8AA/	.	.	8A\	wier-	.	8A\	wier-	.	8d\	wier-	.	8f#\	wier-	.
8A 8AA/J	8r	.	8A\	-ny	.	8A\	-ny	.	8e\	-ny	.	8g\	-ny	.
4D 4DD/	(>16ddd\LL	.	4.D\	zbrat	.	4.A\	zbrat	.	4.d\	zbrat	.	4.f#\	zbrat	.
.	16ccc#\	.	.	.	.	.	.	.	.	.	.	.	.	.
.	16ddd\	.	.	.	.	.	.	.	.	.	.	.	.	.
.	16ccc#\J	.	.	.	.	.	.	.	.	.	.	.	.	.
8ryy	8ddd\J)	.	.	.	.	.	.	.	.	.	.	.	.	.
=35	=35	=35	=35	=35	=35	=35	=35	=35	=35	=35	=35	=35	=35	=35
8E 8EE/L	4r	.	8E\	two-	.	8G#X\	two-	.	8d\	two-	.	8e\	two-	.
8E 8EE/	.	.	8E\	-rzą	.	8G#\	-rzą	.	8d\	-rzą	.	8e\	-rzą	.
8E 8EE/J	8r	.	8E\	wszech-	.	8G#\	wszech-	.	8d\	wszech-	.	8e\	wszech-	.
4A 4AA/	(>16eee\LL	.	4AA/	-ży-	.	4A\	-ży-	.	4c#\	-ży-	.	4e\	-ży-	.
.	16ddd\	.	.	.	.	.	.	.	.	.	.	.	.	.
.	16ccc#\	.	.	.	.	.	.	.	.	.	.	.	.	.
.	16bb\J	.	.	.	.	.	.	.	.	.	.	.	.	.
8C#/	8aa\J)	.	8C#/	-cie	.	8E\	-cie	.	8A/	-cie	.	8c#\	-cie	.
!!LO:PB:g=original
=36	=36	=36	=36	=36	=36	=36	=36	=36	=36	=36	=36	=36	=36	=36
8E\L	(>16gg#X\LL	.	8E\	bu-	.	8E\	bu-	.	8G#X/	bu-	.	8B\	bu-	.
.	16aa\	.	.	.	.	.	.	.	.	.	.	.	.	.
8E\	16bb\	.	8E\	-du-	.	8E\	-du-	.	8G#/	-du-	.	8c#\	-du-	.
.	16ccc#\J	.	.	.	.	.	.	.	.	.	.	.	.	.
8E\J	8ddd\J)	.	8E\	-ją	.	8E\	-ją	.	8G#/	-ją	.	8B\	-ją	.
4AA/	(>16ccc#\LL	.	4AA/	świat	.	4A\	świat	.	4A/	świat	.	4A\	świat	.
.	16ddd\	.	.	.	.	.	.	.	.	.	.	.	.	.
.	16ccc#\	.	.	.	.	.	.	.	.	.	.	.	.	.
.	16bb\J	.	.	.	.	.	.	.	.	.	.	.	.	.
8r	8aa\J)	.	8r	.	.	8r	.	.	8r	.	.	8r	.	.
=37	=37	=37	=37	=37	=37	=37	=37	=37	=37	=37	=37	=37	=37	=37
8D 8DD/L	4r	.	8D\	czte-	.	8F#\	czte-	.	8A/	czte-	.	8d\	czte-	.
8D 8DD/	.	.	8D\	-ry	.	8F#\	-ry	.	8A/	-ry	.	8d\	-ry	.
8D 8DD/J	8r	.	8D\	ży-	.	8F#\	ży-	.	8A/	ży-	.	8d\	ży-	.
4G 4GG/	(>16ddd\LL	.	4G\	-wio-	.	4G\	-wio-	.	4B/	-wio-	.	4d\	-wio-	.
.	16ccc#\	.	.	.	.	.	.	.	.	.	.	.	.	.
.	16ddd\	.	.	.	.	.	.	.	.	.	.	.	.	.
.	16ccc#\J	.	.	.	.	.	.	.	.	.	.	.	.	.
8D 8DD/	8ddd\J)	.	8D\	-ły	.	8F#\	-ły	.	8A/	-ły	.	8d\	-ły	.
=38	=38	=38	=38	=38	=38	=38	=38	=38	=38	=38	=38	=38	=38	=38
8G 8GG/L	4r	.	8G\	przez	.	8G\	przez	.	8B\	przez	.	8d\	przez	.
8G 8GG/	.	.	8G\	wier-	.	8B\	wier-	.	8B\	wier-	.	8d\	wier-	.
8G 8GG/J	8r	.	8G\	-ny	.	8B\	-ny	.	8B\	-ny	.	8e\	-ny	.
4.F# 4.FF#/	(>16fff#\LL	.	4.F#\	zbrat	.	4.A#X\	zbrat	.	4.c#X\	zbrat	.	4.f#\	zbrat	.
.	16eee#X\	.	.	.	.	.	.	.	.	.	.	.	.	.
.	16fff#\	.	.	.	.	.	.	.	.	.	.	.	.	.
.	16eee#\J	.	.	.	.	.	.	.	.	.	.	.	.	.
.	8fff#\J)	.	.	.	.	.	.	.	.	.	.	.	.	.
=39	=39	=39	=39	=39	=39	=39	=39	=39	=39	=39	=39	=39	=39	=39
.	.	.	.	.	.	.	.	.	.	.	.	(<8qe/	.	.
8BB/L	4r	.	8BB/	two-	.	8An\	two-	.	8B\	two-	.	8d#X\)	two-	.
8BB/	.	.	8BB/	-rzą	.	8A\	-rzą	.	8B\	-rzą	.	8c#\	-rzą	.
8BB/J	8r	.	8BB/	wszech-	.	8A\	wszech-	.	8B\	wszech-	.	8d#\	wszech-	.
*	*8va	*	*	*	*	*	*	*	*	*	*	*	*	*
4E 4EE/	(>16eee\LL	.	4E\	-ży-	.	4G\	-ży-	.	4B\	-ży-	.	4e\	-ży-	.
.	16fff#\	.	.	.	.	.	.	.	.	.	.	.	.	.
.	16ggg\	.	.	.	.	.	.	.	.	.	.	.	.	.
.	16aaa\J	.	.	.	.	.	.	.	.	.	.	.	.	.
8E 8EE/	8bbb\J)	.	8E\	-cie	.	8G\	-cie	.	8B\	-cie	.	8dn\	-cie	.
*	*X8va	*	*	*	*	*	*	*	*	*	*	*	*	*
!!LO:LB:g=original
=40	=40	=40	=40	=40	=40	=40	=40	=40	=40	=40	=40	=40	=40	=40
*^	*	*	*	*	*	*	*	*	*	*	*	*	*	*
!	!	!	!	!	!	!	!	!	!	!LO:TX:a:t=P:problem=w źródle pominięta repetycja tekstu w tym takcie	!	!	!	!	!
8A 8AA/L	4.ryy	(>16gg#X\LL	.	8AA/	bu-	.	8G\	bu-	.	8A/	bu-	.	8c#\	bu-	.
.	.	16aa\	.	.	.	.	.	.	.	.	.	.	.	.	.
8A 8AA/	.	16aa#X\	.	8AA/	-du-	.	8G\	-du-	.	8A/	-du-	.	8B\	-du-	.
.	.	16bb\	.	.	.	.	.	.	.	.	.	.	.	.	.
8A 8AA/J	.	16bb#X\	.	8AA/	-ją	.	8G\	-ją	.	8A/	-ją	.	8c#\	-ją	.
.	.	16ccc#\JJ	.	.	.	.	.	.	.	.	.	.	.	.	.
4A/	4D\	4ddd\)	.	4D\	świat	.	4F#\	świat	.	4A/	świat	.	4d\	świat	.
8r	8ryy	8r	.	8r	.	.	8r	.	.	8r	.	.	8r	.	.
*Xtremolo	*Xtremolo	*Xtremolo	*	*	*Xij	*	*	*Xij	*	*	*Xij	*	*	*	*
*v	*v	*	*	*	*	*	*	*	*	*	*	*	*	*	*
=41!|:	=41!|:	=41!|:	=41!|:	=41!|:	=41!|:	=41!|:	=41!|:	=41!|:	=41!|:	=41!|:	=41!|:	=41!|:	=41!|:	=41!|:
*>B	*>B	*	*>B	*	*	*>B	*	*	*>B	*	*	*>B	*	*
!	!	!	!LO:TX:i:a:t=Uniſono col Baſso Iº	!	!	!	!	!	!LO:TX:a:t=P:problem=takty 41 - 44 wpisać same nuty bez tekstu słownego (ustalenie 07.04.2021 z E.Z.)	!	!	!	!	!LO:HP:a
!	!	!	!LO:TX:a:t=P:problem=takty 41 - 44 wpisać same nuty bez tekstu słownego (ustalenie 07.04.2021 z E.Z.)	!	!	!	!	!	!LO:TX:i:a:t=Uniſono col 1º	!	!LO:DY:b:rj	!	!	!LO:DY:b:rj
!	!	!	!LO:TX:a:t=P:problem=napis "Uniſono col Baſso Iº" na pięciolinii	!	!	!	!	!	!LO:TX:a:t=P:problem=napis "Uniſono col 1º" na pięciolinii	!	!	!	!	!
(>16BB-X/LL	(>16bb-X\LL	f	4.B-X\	.	.	4.B-X\	wa-	f	4.B-X\	.	f	4.B-X\	wa-	f
16AA/	16aa\	.	.	.	.	.	.	.	.	.	.	.	.	.
16BB-/	16bb-\	.	.	.	.	.	.	.	.	.	.	.	.	.
16AA/	16aa\	.	.	.	.	.	.	.	.	.	.	.	.	.
16BB-/	16bb-\	.	.	.	.	.	.	.	.	.	.	.	.	.
16AA/JJ	16aa\JJ	.	.	.	.	.	.	.	.	.	.	.	.	.
!	!	!	!	!	!	!	!	!	!	!	!LO:HP:a	!	!	!
16BB-/LL	16bb-\LL	.	4B-\	.	.	4B-\	-ru	.	4B-\	.	<	4B-\	-ru	<
16AA/	16aa\	.	.	.	.	.	.	.	.	.	.	.	.	.
16BB-/	16bb-\	.	.	.	.	.	.	.	.	.	.	.	.	.
16AA/	16aa\	.	.	.	.	.	.	.	.	.	.	.	.	.
16BB-/	16bb-\	.	8Bn\	.	.	8Bn\	ki-	.	8Bn\	.	.	8Bn\	ki-	.
16BBn/JJ)	16bbn\JJ)	.	.	.	.	.	.	.	.	.	.	.	.	.
=42	=42	=42	=42	=42	=42	=42	=42	=42	=42	=42	=42	=42	=42	=42
*tremolo	*tremolo	*	*	*	*	*	*	*	*	*	*	*	*	*
!LO:TX:a:t=P:problem=w źródle dźwięk "BBn" bez kropki	!LO:TX:a:t=P:problem=w źródle dźwięk "bbn" bez kropki	!	!	!	!	!	!	!	!	!	!	!	!	!
!LO:TX:a:t=P:problem=w źródle kasownik dopisany ołówkiem przy "C"	!LO:TX:a:t=P:problem=w źródle kasownik dopisany ołówkiem przy "ccc"	!	!	!	!	!	!	!	!	!	!	!	!	!
(<16Cny/L	(>16cccny\L	.	4.cn\	.	.	4.cn\	-pią-	.	4.cn\	.	.	4.cn\	-pią-	.
.	.	.	.	.	.	.	.	.	.	.	.	.	.	.
16BBn/	16bbn\	.	.	.	.	.	.	.	.	.	.	.	.	.
.	.	.	.	.	.	.	.	.	.	.	.	.	.	.
16C/	16ccc\	.	.	.	.	.	.	.	.	.	.	.	.	.
.	.	.	.	.	.	.	.	.	.	.	.	.	.	.
16BBn/	16bbn\	.	.	.	.	.	.	.	.	.	.	.	.	.
.	.	.	.	.	.	.	.	.	.	.	.	.	.	.
16C/	16ccc\	.	.	.	.	.	.	.	.	.	.	.	.	.
.	.	.	.	.	.	.	.	.	.	.	.	.	.	.
16BBn/	16bbn\	.	.	.	.	.	.	.	.	.	.	.	.	.
.	.	.	.	.	.	.	.	.	.	.	.	.	.	.
16C/	16ccc\	.	4.c\	.	.	4.c\	-cej	.	4.c\	.	.	4.c\	-cej	.
.	.	.	.	.	.	.	.	.	.	.	.	.	.	.
16BBn/	16bbn\	.	.	.	.	.	.	.	.	.	.	.	.	.
.	.	.	.	.	.	.	.	.	.	.	.	.	.	.
16C/	16ccc\	.	.	.	.	.	.	.	.	.	.	.	.	.
.	.	.	.	.	.	.	.	.	.	.	.	.	.	.
16BBn/	16bbn\	.	.	.	.	.	.	.	.	.	.	.	.	.
.	.	.	.	.	.	.	.	.	.	.	.	.	.	.
16C/	16ccc\	.	.	.	.	.	.	.	.	.	.	.	.	.
.	.	.	.	.	.	.	.	.	.	.	.	.	.	.
16BBn/)J	16bbn\)J	.	.	.	.	.	.	.	.	.	.	.	.	.
.	.	.	.	.	.	.	.	.	.	.	.	.	.	.
=43	=43	=43	=43	=43	=43	=43	=43	=43	=43	=43	=43	=43	=43	=43
!LO:TX:a:t=P:problem=w źródle dźwięk "BBn" bez kropki	!	!	!	!	!	!	!	!	!	!	!	!	!	!
!LO:TX:a:t=P:problem=w źródle kasownik dopisany ołówkiem przy "C"	!LO:TX:a:t=P:problem=w źródle kasownik dopisany ołówkiem przy "ccc"	!	!	!	!	!	!	!	!	!	!	!	!	!
(<16Cny/L	(>16cccny\L	<	4.cn\	.	.	4.cn\	wo-	.	4.cn\	.	.	4.cn\	wo-	.
.	.	.	.	.	.	.	.	.	.	.	.	.	.	.
16BBn/	16bbn\	.	.	.	.	.	.	.	.	.	.	.	.	.
.	.	.	.	.	.	.	.	.	.	.	.	.	.	.
16C/	16ccc\	.	.	.	.	.	.	.	.	.	.	.	.	.
.	.	.	.	.	.	.	.	.	.	.	.	.	.	.
16BBn/	16bbn\	.	.	.	.	.	.	.	.	.	.	.	.	.
.	.	.	.	.	.	.	.	.	.	.	.	.	.	.
16C/	16ccc\	.	.	.	.	.	.	.	.	.	.	.	.	.
.	.	.	.	.	.	.	.	.	.	.	.	.	.	.
16BBn/J	16bbn\J	.	.	.	.	.	.	.	.	.	.	.	.	.
.	.	.	.	.	.	.	.	.	.	.	.	.	.	.
16C/LL	16ccc\LL	.	4c\	.	.	4c\	-dy	.	4c\	.	[	4c\	-dy	[
16BB/	16bb\	.	.	.	.	.	.	.	.	.	.	.	.	.
16C/	16ccc\	.	.	.	.	.	.	.	.	.	.	.	.	.
16BB/	16bb\	.	.	.	.	.	.	.	.	.	.	.	.	.
16C/	16ccc\	.	8c#X\	.	.	8c#X\	w to	.	8c#X\	.	.	8c#X\	w to	.
16C#X/JJ)	16ccc#X\JJ)	.	.	.	.	.	.	.	.	.	.	.	.	.
=44	=44	=44	=44	=44	=44	=44	=44	=44	=44	=44	=44	=44	=44	=44
(<16D/L	(>16ddd\L	[	4d\	.	.	4d\	wlej	.	4d\	.	.	4d\	wlej	.
.	.	.	.	.	.	.	.	.	.	.	.	.	.	.
16C#X/	16ccc#X\	.	.	.	.	.	.	.	.	.	.	.	.	.
.	.	.	.	.	.	.	.	.	.	.	.	.	.	.
16D/	16ddd\	.	.	.	.	.	.	.	.	.	.	.	.	.
.	.	.	.	.	.	.	.	.	.	.	.	.	.	.
16C#X/	16ccc#X\	.	.	.	.	.	.	.	.	.	.	.	.	.
.	.	.	.	.	.	.	.	.	.	.	.	.	.	.
16D/	16ddd\	.	8r	.	.	8r	.	.	8r	.	.	8r	.	.
.	.	.	.	.	.	.	.	.	.	.	.	.	.	.
16C#X/J	16ccc#X\J	.	.	.	.	.	.	.	.	.	.	.	.	.
.	.	.	.	.	.	.	.	.	.	.	.	.	.	.
4D/)	16ddd\LL	.	4r	.	.	4r	.	.	4r	.	.	4r	.	.
.	16ccc#\	.	.	.	.	.	.	.	.	.	.	.	.	.
.	16ddd\	.	.	.	.	.	.	.	.	.	.	.	.	.
.	16eee\	.	.	.	.	.	.	.	.	.	.	.	.	.
8r	16fff#\	.	8r	.	.	8r	.	.	8r	.	.	8r	.	.
.	16ggg\JJ)	.	.	.	.	.	.	.	.	.	.	.	.	.
!!LO:PB:g=original
=45	=45	=45	=45	=45	=45	=45	=45	=45	=45	=45	=45	=45	=45	=45
*	*	*	*	*ij	*	*	*ij	*	*	*ij	*	*	*	*
4A 4F# 4D\	(>16aaa\LL	.	4.D\	wszy-	.	4.A\	wszy-	.	4.d\	wszy-	.	4.f#X\	wszy-	.
.	16ggg#X\	.	.	.	.	.	.	.	.	.	.	.	.	.
.	16bbb\	.	.	.	.	.	.	.	.	.	.	.	.	.
.	16aaa\	.	.	.	.	.	.	.	.	.	.	.	.	.
8A 8F# 8D\	16fff#\	.	.	.	.	.	.	.	.	.	.	.	.	.
.	16ddd\JJ)	.	.	.	.	.	.	.	.	.	.	.	.	.
4A 4F# 4D\	(>16aa\LL	.	4D\	-stko	.	4A\	-stko	.	4d\	-stko	.	4f#\	-stko	.
.	16gg#X\	.	.	.	.	.	.	.	.	.	.	.	.	.
.	16bb\	.	.	.	.	.	.	.	.	.	.	.	.	.
.	16aa\	.	.	.	.	.	.	.	.	.	.	.	.	.
8A 8F# 8D\	16ff#\	.	8D\	za-	.	8A\	za-	.	8d\	za-	.	8f#\	za-	.
.	16dd\JJ)	.	.	.	.	.	.	.	.	.	.	.	.	.
=46	=46	=46	=46	=46	=46	=46	=46	=46	=46	=46	=46	=46	=46	=46
*rep	*	*	*	*	*	*	*	*	*	*	*	*	*	*
4A 4F# 4D\	(>16aa\LL	.	4.D\	-go-	.	4.A\	-go-	.	4.f#\	-go-	.	4.a\	-go-	.
.	16gg#X\	.	.	.	.	.	.	.	.	.	.	.	.	.
.	16bb\	.	.	.	.	.	.	.	.	.	.	.	.	.
.	16aa\	.	.	.	.	.	.	.	.	.	.	.	.	.
8A 8F# 8D\	16ff#\	.	.	.	.	.	.	.	.	.	.	.	.	.
.	16dd\JJ)	.	.	.	.	.	.	.	.	.	.	.	.	.
4A 4F# 4D\	(<16a/LL	.	4F#\	-dzą	.	4A\	-dzą	.	4d\	-dzą	.	4f#\	-dzą	.
*	*	*	*	*	*	*	*	*	*	*Xij	*	*	*	*
.	16g#X/	.	.	.	.	.	.	.	.	.	.	.	.	.
.	16b/	.	.	.	.	.	.	.	.	.	.	.	.	.
.	16a/	.	.	.	.	.	.	.	.	.	.	.	.	.
8A 8F# 8D\	16f#/	.	8F#\	ob-	.	8A\	ob-	.	8d\	ob-	.	8f#\	ob-	.
.	16d/JJ)	.	.	.	.	.	.	.	.	.	.	.	.	.
*Xrep	*	*	*	*	*	*	*	*	*	*	*	*	*	*
=47	=47	=47	=47	=47	=47	=47	=47	=47	=47	=47	=47	=47	=47	=47
!	!	!	!LO:TX:a:t=P::problem=takt poprawiony przez głównego skryptora; przed poprawieniem było&colon; 4.A, 4AA, 8A	!	!	!LO:TX:a:t=P::problem=takt poprawiony przez głównego skryptora; przed poprawieniem było&colon; 4.A, 4G, 8G	!	!	!LO:TX:a:t=P::problem=takt poprawiony przez głównego skryptora; przed poprawieniem było&colon; 4.c#, 4c#, 8c#	!	!	!	!	!
8G 8C# 8AA\L	8a\L	.	4.A\	-ję-	.	4.A\	-ję-	.	4.c#\	-ję-	.	4.e\	-ję-	.
8G 8C# 8AA\	(>16ggg\L	.	.	.	.	.	.	.	.	.	.	.	.	.
.	16fff#\	.	.	.	.	.	.	.	.	.	.	.	.	.
8G 8C# 8AA\J	16eee\	.	.	.	.	.	.	.	.	.	.	.	.	.
.	16ddd\JJ	.	.	.	.	.	.	.	.	.	.	.	.	.
*rep	*	*	*	*	*	*	*	*	*	*	*	*	*	*
8G 8C# 8AA\L	16ccc#\LL	.	4.AA/	-cia	.	4.G\	-cia	.	4.c#\	-cia	.	4f#\	.	.
.	16bb\	.	.	.	.	.	.	.	.	.	.	.	.	.
8G 8C# 8AA\	16aa\	.	.	.	.	.	.	.	.	.	.	.	.	.
.	16gg\	.	.	.	.	.	.	.	.	.	.	.	.	.
8G 8C# 8AA\J	16ff#\	.	.	.	.	.	.	.	.	.	.	8e\	-cia	.
.	16ee\JJ)	.	.	.	.	.	.	.	.	.	.	.	.	.
*Xrep	*	*	*	*	*	*	*	*	*	*	*	*	*	*
=48	=48	=48	=48	=48	=48	=48	=48	=48	=48	=48	=48	=48	=48	=48
*>B1	*>B1	*	*>B1	*	*	*>B1	*	*	*>B1	*	*	*>B1	*	*
!	!	!	!	!	!	!	!	!	!	!	!	!LO:TX:a:t=1a	!	!
*	*	*	*	*	*	*	*	*	*	*ij	*	*	*	*
!	!	!	!	!	!	!	!	!	!LO:TX:a:t=P:problem=w źródle pominięta repetycja tekstu w tym takcie	!	!	!	!	!
4F# 4D\	4dd\	.	4D\	jej	.	4F#\	jej	.	4d\	jej	.	4d\	jej	.
*	*	*	*	*	*	*	*	*	*	*Xij	*	*	*	*
8D 8DD/	8ddd 8aa 8ff# 8dd\	.	8r	.	.	8r	.	.	8r	.	.	8r	.	.
4D 4DD/	4r	.	4r	.	.	4r	.	.	4r	.	.	4r	.	.
8Cn/	8r	.	8r	.	.	8r	.	.	8r	.	.	8r	.	.
*Xtremolo	*	*	*	*	*	*	*	*	*	*	*	*	*	*
=49:|!	=49:|!	=49:|!	=49:|!	=49:|!	=49:|!	=49:|!	=49:|!	=49:|!	=49:|!	=49:|!	=49:|!	=49:|!	=49:|!	=49:|!
*>B2	*>B2	*	*>B2	*	*	*>B2	*	*	*>B2	*	*	*>B2	*	*
!	!	!	!	!	!	!	!	!	!	!	!	!LO:TX:a:t=2a	!	!
*	*	*	*	*	*	*	*	*	*	*ij	*	*	*	*
8F#L 8D\	8dd\L	.	4D\	jej	.	4F#\	jej	.	4d\	jej	.	4d\	jej	.
8A 8F# 8D\	8a\	.	.	.	.	.	.	.	.	.	.	.	.	.
8AJ 8F# 8D\	8ee\J	.	8r	.	.	8r	.	.	8r	.	.	8r	.	.
4A 4F# 4D\	4dd\	.	4r	.	.	4r	.	.	4r	.	.	4r	.	.
8r	8r	.	8r	.	.	8r	.	.	8r	.	.	8r	.	.
=50!|:	=50!|:	=50!|:	=50!|:	=50!|:	=50!|:	=50!|:	=50!|:	=50!|:	=50!|:	=50!|:	=50!|:	=50!|:	=50!|:	=50!|:
*>C	*>C	*	*>C	*	*	*>C	*	*	*>C	*	*	*>C	*	*
*	*	*	*	*	*	*	*	*	*	*	*	*	*	*
8G\L	8gg\L	.	8G\	Te-	.	8G\	Te-	.	8g\	Te-	.	8g\	Te-	.
8BB\	8b\	.	8BB/	-raz	.	8BB/	-raz	.	8B\	-raz	.	8B\	-raz	.
8E\J	8ee\J	.	8E\	niech	.	8E\	niech	.	8e\	niech	.	8e\	niech	.
4D\	4dd\	.	4D\	kro-	.	4D\	kro-	.	4d\	kro-	.	4d\	kro-	.
8D\	8dd\	.	8D\	-pli	.	8D\	-pli	.	8d\	-pli	.	8d\	-pli	.
!!LO:LB:g=original
=51	=51	=51	=51	=51	=51	=51	=51	=51	=51	=51	=51	=51	=51	=51
8D/L	8dd\L	.	8d\	du-	.	8d\	du-	.	8d\	du-	.	8d\	du-	.
8BB/	8b\	.	8B\	-cha	.	8B\	-cha	.	8B\	-cha	.	8B\	-cha	.
8GG/J	8g\J	.	8G\	kto	.	8G\	kto	.	8G/	kto	.	8G/	kto	.
4DD/	4d/	.	4D\	da	.	4D\	da	.	4D/	da	.	4D/	da	.
*	*	*	*	*	*	*	*	*	*	*Xij	*	*	*	*
8r	8r	.	16r	.	.	16r	.	.	16r	.	.	16r	.	.
.	.	.	16G\	co	.	16G\	co	.	16G/	co	.	16B\	co	.
=52	=52	=52	=52	=52	=52	=52	=52	=52	=52	=52	=52	=52	=52	=52
*tremolo	*	*	*	*	*	*	*	*	*	*	*	*	*	*
*	*	*	*^	*	*	*^	*	*	*	*	*	*	*	*
!	!	!	!	!LO:TX:a:t=P:problem=wykreślona ósemka po tej nucie	!	!	!LO:TX:a:t=P:problem=wykreślona ósemka po tej nucie	!	!	!	!	!	!	!	!	!
8G 8GG/L	8bL 8g\	.	4G/	8G\	ży-	.	4G/	8G\	ży-	.	8G/L	ży-	.	8B\	ży-	.
8G 8GG/	8ccn 8a\	.	.	8ryy	.	.	.	8ryy	.	.	8A/J	.	.	8cn\	.	.
*	*	*	*	*	*	*	*	*	*	*	*	*ij	*	*	*	*
8G 8GG/J	8ddJ 8b\	.	8G/	8G\	-je	.	8G/	8G\	-je	.	8B/	-je	.	8d\	-je	.
4Cn 4CCn/	4ee 4cc\	.	4Cn/	4.ryy	ży-	.	4cn\	4.ryy	ży-	.	4cn\	ży-	.	4e^>\	ży-	.
8C 8CC/	8dd 8b\	.	16C/	.	-cie	.	16Cn/	.	-cie	.	16B\	-cie	.	16d\	-cie	.
.	.	.	16C/	.	od	.	16C/	.	od	.	16B\	od	.	16d\	od	.
*	*	*	*	*	*	*	*v	*v	*	*	*	*	*	*	*	*
=53	=53	=53	=53	=53	=53	=53	=53	=53	=53	=53	=53	=53	=53	=53	=53
!	!	!	!LO:TX:a:t=P:problem=takt poprawiony przez głównego skryptora; przed poprawieniem na początku były dwie ósemki D	!	!	!	!LO:TX:a:t=P::problem=takt poprawiony przez głównego skryptora; przed poprawieniem było&colon; 8D, 8D, 8D, 4G, 8-	!	!	!	!	!	!	!	!
8D 8DD/L	8ccnL 8a\	.	4D/	4ryy	nie-	.	4D/	nie-	.	8A/L	nie-	.	8cn\L	nie-	.
8D 8DD/	8b 8g\	.	.	.	.	.	.	.	.	8G/J	.	.	8B\J	.	.
8D 8DD/J	8aJ 8f# 8cn\	.	8D/	8D\	-go	.	8D/	-go	.	8F#/	-go	.	8A\	-go	.
4D 4GG/	4g 4d 4B/	.	4GG/	4.ryy	ma	.	4G\	ma	.	4G/	ma	.	4G/	ma	.
*	*	*	*	*	*Xij	*	*	*Xij	*	*	*Xij	*	*	*	*
8r	8r	.	8r	.	.	.	8r	.	.	8r	.	.	8r	.	.
*	*	*	*v	*v	*	*	*	*	*	*	*	*	*	*	*
=54:|!	=54:|!	=54:|!	=54:|!	=54:|!	=54:|!	=54:|!	=54:|!	=54:|!	=54:|!	=54:|!	=54:|!	=54:|!	=54:|!	=54:|!
*>D	*>D	*	*>D	*	*	*>D	*	*	*>D	*	*	*>D	*	*
8D 8DD/L	8dd 8a 8f#/L	.	8D\	.	.	8F#\	.	.	8A/	.	.	8d\	Za-	.
8D 8DD/	8dd 8a 8f#/	.	8D\	.	.	8F#\	.	.	8A/	.	.	8d\	-nim	.
8D 8DD/J	8dd 8a 8f#/J	.	8D\	.	.	8F#\	.	.	8A/	.	.	8d\	zwie-	.
4A 4AA\	4ee 4cc# 4a\	.	4A\	.	.	4A\	.	.	4c#\	.	.	4e\	-trze-	.
8A 8AA\	8ee 8cc# 8a\	.	8A\	.	.	8A\	.	.	8c#\	.	.	8e\	-je	.
!!LO:PB:g=original
=55	=55	=55	=55	=55	=55	=55	=55	=55	=55	=55	=55	=55	=55	=55
*	*	*	*	*ij	*	*	*ij	*	*	*ij	*	*	*	*
8A 8AA\L	8eeL 8cc# 8a\	.	8A\	daj	.	8A\	daj	.	8c#\	daj	.	8e\	daj	.
8A 8AA\	8ff# 8dd 8a\	.	8A\	ku-	.	8A\	ku-	.	8d\	ku-	.	8f#\	ku-	.
8A 8AA\J	8ggJ 8ee 8a\	.	8A\	-bek	.	8A\	-bek	.	8e\	-bek	.	8g\	-bek	.
4.A 4.D\	4.ff# 4.dd 4.a\	.	4.D\	twój	.	4.A\	twój	.	4.d\	twój	.	4.f#\	twój	.
=56	=56	=56	=56	=56	=56	=56	=56	=56	=56	=56	=56	=56	=56	=56
8E 8EE/L	8ee 8b 8g#X\L	.	8E\	pó-	.	8G#X\	pó-	.	8d\	pó-	.	8e\	pó-	.
8E 8EE/	8ee 8b 8g#X\	.	8E\	-ki	.	8G#\	-ki	.	8d\	-ki	.	8e\	-ki	.
!	!	!	!	!	!	!	!	!	!LO:N:vis=4	!	!	!	!	!
8E 8EE/J	8ee 8b 8g#X\J	.	8E\	wre	.	8G#\	wre	.	8d\	wre	.	8e\	wre	.
4A 4AA\	4ee 4cc# 4a\	.	4AA/	ty-	.	4A\	ty-	.	4c#\	ty-	.	4e\	ty-	.
8C#/	8cc# 8a 8e\	.	8C#/	-lko	.	8E\	-lko	.	8A/	-lko	.	8c#\	-lko	.
*	*Xtremolo	*	*	*	*	*	*	*	*	*	*	*	*	*
=57	=57	=57	=57	=57	=57	=57	=57	=57	=57	=57	=57	=57	=57	=57
8E\L	8bL 8g#X 8d/	.	8E\	po-	.	8E\	po-	.	8G#X/	po-	.	8B\	po-	.
8E\	8cc# 8g# 8d/	.	8E\	-krze-	.	8E\	-krze-	.	8G#/	-krze-	.	8c#\	-krze-	.
8E\J	8bJ 8g# 8d/	.	8E\	-pia	.	8E\	-pia	.	8G#/	-pia	.	8B\	-pia	.
4AA/	4a 4e 4c#/	.	4AA/	zdrój	.	4A\	zdrój	.	4A/	zdrój	.	4A\	zdrój	.
8r	8r	.	8r	.	.	8r	.	.	8r	.	.	8r	.	.
=58	=58	=58	=58	=58	=58	=58	=58	=58	=58	=58	=58	=58	=58	=58
*	*tremolo	*	*	*	*	*	*	*	*	*	*	*	*	*
8D 8DD/L	8dd 8a 8f#/L	.	8D\	za-	.	8F#\	za-	.	8A/	za-	.	8d\	za-	.
8D 8DD/	8dd 8a 8f#/	.	8D\	-nim	.	8F#\	-nim	.	8A/	-nim	.	8d\	-nim	.
8D 8DD/J	8dd 8a 8f#/J	.	8D\	zwie-	.	8F#\	zwie-	.	8A/	zwie-	.	8d\	zwie-	.
4G 4GG/	4dd 4b 4g/	.	4G\	-trze-	.	4G\	-trze-	.	4B\	-trze-	.	4d\	-trze-	.
8D 8DD/	8dd 8a 8f#/	.	8D\	-je	.	8F#\	-je	.	8A\	-je	.	8d\	-je	.
!!LO:LB:g=original
=59	=59	=59	=59	=59	=59	=59	=59	=59	=59	=59	=59	=59	=59	=59
8G 8GG/L	8ddL 8b 8g\	.	8G\	daj	.	8G\	daj	.	8B\	daj	.	8d\	daj	.
8G 8GG/	8dd 8b\	.	8G\	ku-	.	8B\	ku-	.	8B\	ku-	.	8d\	ku-	.
8G 8GG/J	8eeJ 8b\	.	8G\	-bek	.	8B\	-bek	.	8B\	-bek	.	8e\	-bek	.
4.F# 4.FF#;>/	4.ff# 4.cc# 4.a#X^>;>\	.	4.F#;>\	twój	.	4.A#X;>\	twój	.	4.c#;>\	twój	.	4.f#;>\	twój	.
=60	=60	=60	=60	=60	=60	=60	=60	=60	=60	=60	=60	=60	=60	=60
.	(<8qee/	.	.	.	.	.	.	.	.	.	.	.	.	.
*	*^	*	*	*	*	*	*	*	*	*	*	*	*	*
*	*Xtremolo	*tremolo	*	*	*	*	*	*	*	*	*	*	*	*	*
.	.	.	.	.	.	.	.	.	.	.	.	.	(<8qe/	.	.
8BB/L	8dd#X/L)	8b 8f#\L	.	8BB/	pó-	.	8An\	pó-	.	8B\	pó-	.	8d#X\)	pó-	.
8BB/	8cc#/	8b 8f#\	.	8BB/	-ki	.	8A\	-ki	.	8B\	-ki	.	8c#\	-ki	.
8BB/J	8dd#/J	8b 8f#\J	.	8BB/	wrze	.	8A\	wrze	.	8B\	wrze	.	8d#\	wrze	.
4E 4EE/	4ee/	4b 4g\	.	4E\	tyl-	.	4G\	tyl-	.	4B\	tyl-	.	4e\	tyl-	.
8E 8EE/	8ddn/	8b 8g\	.	8E\	-ko	.	8G\	-ko	.	8B\	-ko	.	8dn\	-ko	.
=61	=61	=61	=61	=61	=61	=61	=61	=61	=61	=61	=61	=61	=61	=61	=61
*	*Xtremolo	*tremolo	*	*	*	*	*	*	*	*	*	*	*	*	*
8AA/L	8cc#/L	8a 8e\L	.	8AA/	po-	.	8G\	po-	.	8A/	po-	.	8c#\	po-	.
8AA/	8b/	8a 8e\	.	8AA/	-krze-	.	8G\	-krze-	.	8A/	-krze-	.	8B\	-krze-	.
8AA/J	8cc#/J	8a 8e\J	.	8AA/	-pia	.	8G\	-pia	.	8A/	-pia	.	8c#\	-pia	.
*Xtremolo	*	*	*	*	*	*	*	*	*	*	*	*	*	*	*
4D\	8dd/	8a 8f#\	.	4D\	zdrój	.	4F#\	zdrój	.	4A/	zdrój	.	4d\	zdrój	.
*	*	*	*	*	*	*	*	*Xij	*	*	*Xij	*	*	*	*
.	(>16dd\LL	4ryy	.	.	.	.	.	.	.	.	.	.	.	.	.
.	16ee\	.	.	.	.	.	.	.	.	.	.	.	.	.	.
8r	16ff#\	.	.	8r	.	.	8r	.	.	8r	.	.	8r	.	.
.	16gg\JJ	.	.	.	.	.	.	.	.	.	.	.	.	.	.
*	*v	*v	*	*	*	*	*	*	*	*	*	*	*	*	*
=62	=62	=62	=62	=62	=62	=62	=62	=62	=62	=62	=62	=62	=62	=62
*^	*	*	*	*	*	*	*	*	*	*	*	*	*	*
!	!	!	!	!LO:TX:a:t=P:problem=omyłkowo wpisane są pauzy 4r i 8r.	!	!	!	!	!	!	!	!	!	!	!
8r	4D\	8aa'>\L)	.	2.r	.	.	4r	.	.	2.r	.	.	2.r	.	.
4d 4A 4F#^>/	.	(>16gg#X\L	.	.	.	.	.	.	.	.	.	.	.	.	.
.	.	16aa\	.	.	.	.	.	.	.	.	.	.	.	.	.
!	!	!	!	!	!	!	!LO:TX:i:a:t=Solo	!	!	!	!	!	!	!	!
.	8rBB	16bb\	.	.	.	.	8r	.	.	.	.	.	.	.	.
.	.	16aa\JJ	.	.	.	.	.	.	.	.	.	.	.	.	.
8r	4D\	8ddd'>\L)	.	.	.	.	8d\	czte-	.	.	.	.	.	.	.
4d 4A 4F#^>/	.	(>16gg#\L	.	.	.	.	8F#\	-ry	.	.	.	.	.	.	.
.	.	16aa\	.	.	.	.	.	.	.	.	.	.	.	.	.
.	8rBB	16bb\	.	.	.	.	8B\	ży-	.	.	.	.	.	.	.
.	.	16aa\JJ	.	.	.	.	.	.	.	.	.	.	.	.	.
!!LO:PB:g=original
=63	=63	=63	=63	=63	=63	=63	=63	=63	=63	=63	=63	=63	=63	=63	=63
*	*	*	*	*	*	*	*^	*	*	*	*	*	*	*	*
*rep	*rep	*	*	*	*	*	*	*	*	*	*	*	*	*	*	*
8r	4D\	8ddd\L)	.	2.ryy	.	.	4A\	4.ryy	-wio-	.	2.ryy	.	.	2.ryy	.	.
4d 4A 4F#^/	.	(>16gg#X\L	.	.	.	.	.	.	.	.	.	.	.	.	.	.
.	.	16aa\	.	.	.	.	.	.	.	.	.	.	.	.	.	.
.	8r	16bb\	.	.	.	.	16F#\	.	-ły	.	.	.	.	.	.	.
.	.	16aa\JJ	.	.	.	.	16F#\	.	przez	.	.	.	.	.	.	.
8r	4D\	8fff#'>\L)	.	.	.	.	8D/L	8D\	wier-	.	.	.	.	.	.	.
4d 4A 4F#^/	.	(>16eee\L	.	.	.	.	8E/J	8E\	.	.	.	.	.	.	.	.
.	.	16ddd\	.	.	.	.	.	.	.	.	.	.	.	.	.	.
.	8r	16ccc#\	.	.	.	.	8F#\	8ryy	-ny	.	.	.	.	.	.	.
.	.	16ddd\JJ	.	.	.	.	.	.	.	.	.	.	.	.	.	.
*Xrep	*Xrep	*	*	*	*	*	*	*	*	*	*	*	*	*	*	*
*	*	*	*	*	*	*	*v	*v	*	*	*	*	*	*	*	*
=64	=64	=64	=64	=64	=64	=64	=64	=64	=64	=64	=64	=64	=64	=64	=64
*	*	*	*	*	*	*	*	*	*	*	*	*	*^	*	*
8rF	4AA\	8eee'>\L)	.	2.ryy	.	.	4AA/	zbrat	.	2.ryy	.	.	4r	2.rg	.	.
4A 4E 4C#/	.	(>16gg#X\L	.	.	.	.	.	.	.	.	.	.	.	.	.	.
.	.	16aa\	.	.	.	.	.	.	.	.	.	.	.	.	.	.
.	8ryy	16bb\	.	.	.	.	8r	.	.	.	.	.	8r	.	.	.
.	.	16aa\JJ	.	.	.	.	.	.	.	.	.	.	.	.	.	.
8rF	4AA\	8eee'>\L)	.	.	.	.	4r	.	.	.	.	.	8e\	.	czte-	.
4A 4E 4C#/	.	(>16gg#\L	.	.	.	.	.	.	.	.	.	.	8c#\	.	-ry	.
.	.	16aa\	.	.	.	.	.	.	.	.	.	.	.	.	.	.
.	8ryy	16bb\	.	.	.	.	8r	.	.	.	.	.	8d\	.	ży-	.
.	.	16aa\JJ)	.	.	.	.	.	.	.	.	.	.	.	.	.	.
=65	=65	=65	=65	=65	=65	=65	=65	=65	=65	=65	=65	=65	=65	=65	=65	=65
*rep	*rep	*	*	*	*	*	*	*	*	*	*	*	*	*	*	*
!	!	!	!	!	!	!	!	!	!	!	!	!	!LO:N:vis=4.	!	!	!
8r	4AA\	(>16ggg\LL	.	2.ryy	.	.	2.r	.	.	2.ryy	.	.	4e\	4ryy	-wio-	.
.	.	16fff#\	.	.	.	.	.	.	.	.	.	.	.	.	.	.
4A 4E 4C#/	.	16eee\	.	.	.	.	.	.	.	.	.	.	.	.	.	.
.	.	16ddd\	.	.	.	.	.	.	.	.	.	.	.	.	.	.
*	*	*	*	*	*	*	*	*	*	*	*	*	*	*	*above	*
!	!	!	!	!	!	!	!	!	!	!	!	!	!LO:TX:a:t=P:global:problem=tekst z komentarzem "above" nad nutami (do "below")	!	!	!
!	!	!	!	!	!	!	!	!	!	!	!	!	!LO:TX:a:t=P:problem=tekst poprawiony przez głównego skryptora; przed poprawieniem tekst był podpisany pod nutami.	!	!	!
.	8r	16ccc#\	.	.	.	.	.	.	.	.	.	.	16c#/	8c#\	-ły	.
.	.	16bb\JJ	.	.	.	.	.	.	.	.	.	.	16c#/	.	przez	.
8r	4AA\	16aa\LL	.	.	.	.	.	.	.	.	.	.	8A/L	8A\	wier-	.
.	.	16gg#X\	.	.	.	.	.	.	.	.	.	.	.	.	.	.
4A 4E 4C#/	.	16ggn\	.	.	.	.	.	.	.	.	.	.	8B/J	8B\	.	.
.	.	16ff#\	.	.	.	.	.	.	.	.	.	.	.	.	.	.
.	8r	16gg\	.	.	.	.	.	.	.	.	.	.	8A\	8ryy	-ny	.
.	.	16ee\JJ)	.	.	.	.	.	.	.	.	.	.	.	.	.	.
*Xrep	*Xrep	*	*	*	*	*	*	*	*	*	*	*	*	*	*	*
*	*	*	*	*	*	*	*	*	*	*	*	*	*v	*v	*	*
=66	=66	=66	=66	=66	=66	=66	=66	=66	=66	=66	=66	=66	=66	=66	=66
8r	4D\	8dd'>\L	.	2.ryy	.	.	4r	.	.	2.ryy	.	.	4d\	zbrat	.
*	*	*	*	*	*	*	*	*	*	*	*	*	*	*below	*
4d 4A 4F#/	.	(>16gg#X\L	.	.	.	.	.	.	.	.	.	.	.	.	.
.	.	16aa\	.	.	.	.	.	.	.	.	.	.	.	.	.
.	8rBB	16bb\	.	.	.	.	8r	.	.	.	.	.	8r	.	.
.	.	16aa\JJ)	.	.	.	.	.	.	.	.	.	.	.	.	.
8r	4D\	8ddd`>\L	.	.	.	.	8d\	two-	.	.	.	.	4r	.	.
4d 4A 4F#/	.	(>16gg#\L	.	.	.	.	8F#\	-rzą	.	.	.	.	.	.	.
.	.	16aa\	.	.	.	.	.	.	.	.	.	.	.	.	.
.	8rBB	16bb\	.	.	.	.	8B\	wszech-	.	.	.	.	8r	.	.
.	.	16aa\JJ)	.	.	.	.	.	.	.	.	.	.	.	.	.
!!LO:LB:g=original
=67	=67	=67	=67	=67	=67	=67	=67	=67	=67	=67	=67	=67	=67	=67	=67
*	*	*	*	*	*	*	*^	*	*	*	*	*	*	*	*
*rep	*rep	*	*	*	*	*	*	*	*	*	*	*	*	*	*	*
8r	4D\	8ddd`>\L	.	2.ryy	.	.	4A\	4ryy	-ży-	.	2.ryy	.	.	2.r	.	.
4d 4A 4F#^/	.	(>16gg#X\L	.	.	.	.	.	.	.	.	.	.	.	.	.	.
.	.	16aa\	.	.	.	.	.	.	.	.	.	.	.	.	.	.
.	8r	16bb\	.	.	.	.	16F#\	8ryy	-cie	.	.	.	.	.	.	.
.	.	16aa\JJ	.	.	.	.	16F#\	.	bu	.	.	.	.	.	.	.
*	*	*	*	*	*	*	*	*	*above	*	*	*	*	*	*	*
!	!	!	!	!	!	!	!LO:TX:a:t=P:problem=tekst poprawiony przez głównego skryptora; przed poprawieniem tekst był podpisany pod nutami.	!	!	!	!	!	!	!	!	!
8r	4D\	8fff#\L)	.	.	.	.	8D/L	8D\	du-	.	.	.	.	.	.	.
4d 4A 4F#^/	.	(>16eee\L	.	.	.	.	8E/Jj	8E\	-du-	.	.	.	.	.	.	.
.	.	16ddd\	.	.	.	.	.	.	.	.	.	.	.	.	.	.
.	8r	16ccc#\	.	.	.	.	8F#\	8ryy	-ją	.	.	.	.	.	.	.
.	.	16ddd\JJ	.	.	.	.	.	.	.	.	.	.	.	.	.	.
*Xrep	*Xrep	*	*	*	*	*	*	*	*	*	*	*	*	*	*	*
*	*	*	*	*	*	*	*v	*v	*	*	*	*	*	*	*	*
=68	=68	=68	=68	=68	=68	=68	=68	=68	=68	=68	=68	=68	=68	=68	=68
8rF	4AA\	8eee\L)	.	2.ryy	.	.	4AA/	świat	.	2.ryy	.	.	4r	.	.
*	*	*	*	*	*	*	*	*below	*	*	*	*	*	*	*
4A 4E 4C#/	.	(>16gg#X\L	.	.	.	.	.	.	.	.	.	.	.	.	.
.	.	16aa\	.	.	.	.	.	.	.	.	.	.	.	.	.
.	8rGG	16bb\	.	.	.	.	8r	.	.	.	.	.	8r	.	.
.	.	16aa\JJ	.	.	.	.	.	.	.	.	.	.	.	.	.
8rF	4AA\	8eee'\L)	.	.	.	.	4r	.	.	.	.	.	8e\	two-	.
4A 4E 4C#/	.	(>16gg#\L	.	.	.	.	.	.	.	.	.	.	8c#\	-rzą	.
.	.	16aa\	.	.	.	.	.	.	.	.	.	.	.	.	.
.	8rGG	16bb\	.	.	.	.	8r	.	.	.	.	.	8d\	wszech-	.
.	.	16aa\JJ)	.	.	.	.	.	.	.	.	.	.	.	.	.
=69	=69	=69	=69	=69	=69	=69	=69	=69	=69	=69	=69	=69	=69	=69	=69
*	*	*	*	*	*	*	*	*	*	*	*	*	*^	*	*
*rep	*rep	*	*	*	*	*	*	*	*	*	*	*	*	*	*	*
8r	4AA\	(>16ggg\LL	.	2.ryy	.	.	2.r	.	.	2.ryy	.	.	4e\	4ryy	-ży-	.
.	.	16fff#\	.	.	.	.	.	.	.	.	.	.	.	.	.	.
4A 4E 4C#/	.	16eee\	.	.	.	.	.	.	.	.	.	.	.	.	.	.
.	.	16ddd\	.	.	.	.	.	.	.	.	.	.	.	.	.	.
*	*	*	*	*	*	*	*	*	*	*	*	*	*	*	*above	*
!	!	!	!	!	!	!	!	!	!	!	!	!	!LO:TX:a:t=P:problem=tekst poprawiony przez głównego skryptora; przed poprawieniem tekst był podpisany pod nutami.	!	!	!
.	8r	16ccc#\	.	.	.	.	.	.	.	.	.	.	16c#/	8c#\	-cie	.
.	.	16bb\JJ	.	.	.	.	.	.	.	.	.	.	16c#/	.	bu-	.
8r	4AA\	16aa\LL	.	.	.	.	.	.	.	.	.	.	8A/L	8A\	-du-	.
.	.	16gg#X\	.	.	.	.	.	.	.	.	.	.	.	.	.	.
4A 4E 4C#/	.	16ggn\	.	.	.	.	.	.	.	.	.	.	8B/J	8B\	.	.
.	.	16ff#\	.	.	.	.	.	.	.	.	.	.	.	.	.	.
.	8r	16gg\	.	.	.	.	.	.	.	.	.	.	8A/	8A\	-ją	.
.	.	16ee\JJ)	.	.	.	.	.	.	.	.	.	.	.	.	.	.
*Xrep	*Xrep	*	*	*	*	*	*	*	*	*	*	*	*	*	*	*
*	*	*	*	*	*	*	*	*	*	*	*	*	*v	*v	*	*
*v	*v	*	*	*	*	*	*	*	*	*	*	*	*	*	*
=70	=70	=70	=70	=70	=70	=70	=70	=70	=70	=70	=70	=70	=70	=70
8F#L 8D\	(>8dd\L	.	2.ryy	.	.	8d\	czte-	.	2.ryy	.	.	4d\	świat	.
*	*	*	*	*	*	*	*	*	*	*	*	*	*below	*
8F# 8D\	16bb\L	.	.	.	.	8F#\	-ry	.	.	.	.	.	.	.
.	16aa\	.	.	.	.	.	.	.	.	.	.	.	.	.
8F#J 8D\	16ff#\	.	.	.	.	8B\	ży-	.	.	.	.	8r	.	.
.	16dd\JJ)	.	.	.	.	.	.	.	.	.	.	.	.	.
*tremolo	*	*	*	*	*	*	*	*	*	*	*	*	*	*
8G 8E 8AA\L	(>16ddd#X\LL	.	.	.	.	8A\	-wio-	.	.	.	.	8e\	czte-	.
.	16eee\	.	.	.	.	.	.	.	.	.	.	.	.	.
8G 8E 8AA\	16fff#\	.	.	.	.	8A\	-ły	.	.	.	.	8c#\	-ry	.
.	16eee\	.	.	.	.	.	.	.	.	.	.	.	.	.
8G 8E 8AA\J	16ccc#\	.	.	.	.	16r	.	.	.	.	.	8A\	ży-	.
.	16aa\JJ)	.	.	.	.	16A\	przez	.	.	.	.	.	.	.
!!LO:PB:g=original
=71	=71	=71	=71	=71	=71	=71	=71	=71	=71	=71	=71	=71	=71	=71
*	*8va	*	*	*	*	*	*	*	*	*	*	*	*	*
!	!	!	!	!	!	!LO:TX:a:t=P:problem=takt poprawiony przez głównego skryptora; przed poprawieniem nuty 8d i 8F# nie były połączone wspólną belką	!	!	!	!	!	!	!	!
!	!	!	!	!	!	!LO:TX:a:t=P:problem=tekst poprawiony przez głównego skryptora	!	!	!	!	!	!	!	!
8F# 8D\L	(>16aaa\LL	.	2.r	.	.	8d\L	wier-	.	2.r	.	.	8f#\	-wio-	.
.	16ggg#X\	.	.	.	.	.	.	.	.	.	.	.	.	.
8F# 8D\	16bbb\	.	.	.	.	8F#\J	.	.	.	.	.	8d\	-ły	.
.	16aaa\	.	.	.	.	.	.	.	.	.	.	.	.	.
8F# 8D\J	16fff#\	.	.	.	.	8B\	-ny	.	.	.	.	16r	.	.
*	*	*	*	*	*	*	*	*	*	*	*	*	*above	*
.	16ddd\JJ)	.	.	.	.	.	.	.	.	.	.	16d/	przez	.
!	!	!	!	!	!	!	!	!	!	!	!	!LO:TX:a:t=P:problem=takt poprawiony przez głównego skryptora; przed poprawieniem nuty 8ee i 8cc nie były połączone wspólną belką	!	!
!	!	!	!	!	!	!	!	!	!	!	!	!LO:TX:a:t=P:problem=tekst poprawiony przez głównego skryptora; przed poprawieniem tekst był podpisany pod nutami.	!	!
8G 8E 8AA\L	(>16eee\LL	.	.	.	.	4A\	zbrat	.	.	.	.	8e\L	wier-	.
.	16ddd#X\	.	.	.	.	.	.	.	.	.	.	.	.	.
8G 8E 8AA\	16fff#\	.	.	.	.	.	.	.	.	.	.	8c#\J	.	.
.	16eee\	.	.	.	.	.	.	.	.	.	.	.	.	.
8G 8E 8AA\J	16ccc#\	.	.	.	.	8r	.	.	.	.	.	8A\	-ny	.
.	16aa\JJ)	.	.	.	.	.	.	.	.	.	.	.	.	.
*	*X8va	*	*	*	*	*	*	*	*	*	*	*	*	*
=72	=72	=72	=72	=72	=72	=72	=72	=72	=72	=72	=72	=72	=72	=72
*rep	*	*	*	*	*	*	*	*	*	*	*	*	*	*
!	!LO:TX:i:a:t=loco	!	!	!	!	!	!	!	!	!	!	!	!	!
8F# 8D\L	(>16aa\LL	.	2.r	.	.	8d\	two-	.	2.r	.	.	4d\	zbrat	.
*	*	*	*	*	*	*	*	*	*	*	*	*	*below	*
.	16gg#X\	.	.	.	.	.	.	.	.	.	.	.	.	.
8F# 8D\	16bb\	.	.	.	.	8F#\	-rzą	.	.	.	.	.	.	.
.	16aa\	.	.	.	.	.	.	.	.	.	.	.	.	.
8F# 8D\J	16ff#\	.	.	.	.	8B\	wszech-	.	.	.	.	8r	.	.
.	16dd\JJ)	.	.	.	.	.	.	.	.	.	.	.	.	.
8G 8E 8AA\L	(>16eee\LL	.	.	.	.	8A\	-ży-	.	.	.	.	8e\	two-	.
.	16ddd#X\	.	.	.	.	.	.	.	.	.	.	.	.	.
8G 8E 8AA\	16fff#\	.	.	.	.	8A\	-cie	.	.	.	.	8c#\	-rzą	.
.	16eee\	.	.	.	.	.	.	.	.	.	.	.	.	.
8G 8E 8AA\J	16ccc#\	.	.	.	.	8r	.	.	.	.	.	8A\	wszech-	.
.	16aa\JJ)	.	.	.	.	.	.	.	.	.	.	.	.	.
*Xrep	*	*	*	*	*	*	*	*	*	*	*	*	*	*
=73	=73	=73	=73	=73	=73	=73	=73	=73	=73	=73	=73	=73	=73	=73
*rep	*8va	*	*	*	*	*	*	*	*	*	*	*	*	*
8F# 8D\L	(>16aaa\LL	.	2.r	.	.	8d\	bu-	.	2.r	.	.	8f#\	-ży-	.
.	16ggg#X\	.	.	.	.	.	.	.	.	.	.	.	.	.
8F# 8D\	16bbb\	.	.	.	.	8F#\	-du-	.	.	.	.	8d\	-cie	.
.	16aaa\	.	.	.	.	.	.	.	.	.	.	.	.	.
8F# 8D\J	16fff#\	.	.	.	.	8B\	-ją	.	.	.	.	16r	.	.
*	*	*	*	*	*	*	*	*	*	*	*	*	*above	*
.	16ddd\JJ)	.	.	.	.	.	.	.	.	.	.	16d/	bu-	.
!	!	!	!	!	!	!	!	!	!	!	!	!LO:TX:a:t=P:problem=tekst poprawiony przez głównego skryptora; przed poprawieniem tekst był podpisany pod nutami.	!	!
!	!	!	!	!	!	!	!	!	!	!	!	!LO:TX:a:t=P:problem=takt poprawiony przez głównego skryptora; przed poprawieniem nuty 8ee i 8cc nie były połączone wspólną belką i były skierowane w dół	!	!
8G 8E 8AA\L	(>16eee\LL	.	.	.	.	4A\	świat	.	.	.	.	8e/L	-du-	.
.	16ddd#X\	.	.	.	.	.	.	.	.	.	.	.	.	.
8G 8E 8AA\	16fff#\	.	.	.	.	.	.	.	.	.	.	8c#/J	.	.
.	16eee\	.	.	.	.	.	.	.	.	.	.	.	.	.
8G 8E 8AA\J	16ccc#\	.	.	.	.	8r	.	.	.	.	.	8A\	-ją	.
.	16aa\JJ)	.	.	.	.	.	.	.	.	.	.	.	.	.
*Xtremolo	*	*	*	*	*	*	*	*	*	*	*	*	*	*
*Xrep	*X8va	*	*	*	*	*	*	*	*	*	*	*	*	*
=74	=74	=74	=74	=74	=74	=74	=74	=74	=74	=74	=74	=74	=74	=74
*	*	*	*	*	*	*	*	*	*	*	*	*^	*	*
*	*	*	*	*	*	*	*	*	*	*	*	*	*	*^	*
*Xtremolo	*	*	*	*	*	*	*ij	*	*	*	*	*	*	*above	*below	*
!	!LO:TX:i:a:t=loco	!	!LO:TX:i:a:t=Tutti	!	!	!	!	!LO:DY:b:rj	!LO:TX:i:a:t=Tutti	!	!	!	!	!	!	!LO:DY:b:rj
8F#L 8D\	8ddd 8aa 8ff# 8dd\L	ff	4.d\	czte-	.	4.d\	czte-	ff	4.d\	czte-	.	4f#/	4.f#\	świat	czte-	ff
8d 8D\	8ddd 8aa 8ff# 8dd\	.	.	.	.	.	.	.	.	.	.	.	.	.	.	.
8dJ 8D\	8ddd 8aa 8ff# 8dd\J	.	.	.	.	.	.	.	.	.	.	8rcc	.	.	.	.
*tremolo	*	*	*	*	*	*	*	*	*	*	*	*	*	*	*	*
8d 8D\L	8ddd 8aa 8ff# 8dd\L	.	4d\	-ry	.	4d\	-ry	.	4d\	-ry	.	8f#/	4f#\	czte-	-ry	.
8d 8D\	8ddd 8aa 8ff# 8dd\	.	.	.	.	.	.	.	.	.	.	8f#/	.	-ry	.	.
8d 8D\J	8ddd 8aa 8ff# 8dd\J	.	8d\	ży-	.	8d\	ży	.	8d\	ży-	.	8f#/	8f#\	ży-	ży	.
*	*	*	*	*	*	*	*	*	*	*	*	*	*	*below	*	*
*	*	*	*	*	*	*	*	*	*	*	*	*v	*v	*	*	*
*	*	*	*	*	*	*	*	*	*	*	*	*	*v	*v	*
!!LO:LB:g=original
=75	=75	=75	=75	=75	=75	=75	=75	=75	=75	=75	=75	=75	=75	=75
!	!	!	!	!	!	!	!	!	!	!	!	!LO:TX:a:t=P::problem=nuty w takcie poprawione przez głównego skryptora; przed poprawieniem&colon; 4.f#, 4.f#	!	!
8B 8BB/L	8ddd 8bb 8ff# 8dd\L	.	4.B\	-wio-	.	4.B\	.	.	4.d\	-wio-	.	4.f#\	-wio-	.
8B 8BB/	8ddd 8bb 8ff# 8dd\	.	.	.	.	.	.	.	.	.	.	.	.	.
8B 8BB/	8ddd 8bb 8ff# 8dd\	.	.	.	.	.	.	.	.	.	.	.	.	.
8B 8BB/	8ddd 8bb 8ff# 8dd\	.	4B\	-ły	.	4B\	.	.	4d\	-ły	.	4f#\	-ły	.
8B 8BB/	8ddd 8bb 8ff# 8dd\	.	.	.	.	.	.	.	.	.	.	.	.	.
*	*	*	*	*	*	*	*	*	*	*ij	*	*	*	*
8B 8BB/J	8ddd 8bb 8ff# 8dd\J	.	8B\	.	.	8B\	.	.	8d\	przez	.	8f#\	przez	.
=76	=76	=76	=76	=76	=76	=76	=76	=76	=76	=76	=76	=76	=76	=76
!	!	!	!	!	!	!	!	!	!	!	!	!LO:TX:a:t=P::problem=tekst poprawiony przez głównego skryptora; przed poprawieniem&colon; przez wier-ny	!	!
!	!	!	!LO:TX:a:t=P::problem=nuty w takcie poprawione przez głównego skryptora; przed poprawieniem&colon;4.G, 4G, 8G	!	!	!LO:TX:a:t=P::problem=nuty w takcie poprawione przez głównego skryptora; przed poprawieniem&colon;4.B, 4B, 8B	!	!	!LO:TX:a:t=P::problem=nuty w takcie poprawione przez głównego skryptora; przed poprawieniem&colon;4.d, 4d, 8d	!	!	!LO:TX:a:t=P::problem=nuty w takcie poprawione przez głównego skryptora; przed poprawieniem&colon;4.g, 4g, 8g	!	!
8G 8GG/L	8ddd 8bb 8gg 8dd\L	.	4.G\	.	.	4.B\	.	.	4.d\	wier-	.	4.g\	wier-	.
8G 8GG/	8ddd 8bb 8gg 8dd\	.	.	.	.	.	.	.	.	.	.	.	.	.
8G 8GG/	8ddd 8bb 8gg 8dd\	.	.	.	.	.	.	.	.	.	.	.	.	.
!	!	!	!	!	!	!	!	!	!	!	!	!LO:N:vis=4	!	!
8G 8GG/	8ddd 8bb 8gg 8dd\	.	4.G\	.	.	4.B\	.	.	4.d\	-ny	.	4.g\	-ny	.
*	*	*	*	*	*	*	*	*	*	*Xij	*	*	*	*
8G 8GG/	8ddd 8bb 8gg 8dd\	.	.	.	.	.	.	.	.	.	.	.	.	.
8G 8GG/J	8ddd 8bb 8gg 8dd\J	.	.	.	.	.	.	.	.	.	.	.	.	.
=77	=77	=77	=77	=77	=77	=77	=77	=77	=77	=77	=77	=77	=77	=77
8E 8EE/L	8eee 8bb 8gg 8ee\L	.	2.E\	.	.	2.B\	.	.	2.e\	.	.	2.g\	zbrat	.
8E 8EE/	8eee 8bb 8gg 8ee\	.	.	.	.	.	.	.	.	.	.	.	.	.
8E 8EE/	8eee 8bb 8gg 8ee\	.	.	.	.	.	.	.	.	.	.	.	.	.
8E 8EE/	8eee 8bb 8gg 8ee\	.	.	.	.	.	.	.	.	.	.	.	.	.
8E 8EE/	8eee 8bb 8gg 8ee\	.	.	.	.	.	.	.	.	.	.	.	.	.
8E 8EE/J	8eee 8bb 8gg 8ee\J	.	.	.	.	.	.	.	.	.	.	.	.	.
=78	=78	=78	=78	=78	=78	=78	=78	=78	=78	=78	=78	=78	=78	=78
*	*8va	*	*	*	*	*	*	*	*	*	*	*	*	*
8A 8AA/L	8ggg 8eee 8ccc# 8aa\L	.	4.A\	.	.	4.A\	.	.	4.c#\	.	.	4.e\	two-	.
8A 8AA/	8ggg 8eee 8ccc# 8aa\	.	.	.	.	.	.	.	.	.	.	.	.	.
8A 8AA/	8ggg 8eee 8ccc# 8aa\	.	.	.	.	.	.	.	.	.	.	.	.	.
8A 8AA/	8ggg 8eee 8ccc# 8aa\	.	4A\	.	.	4A\	.	.	4c#\	.	.	4e\	-rzą	.
8A 8AA/	8ggg 8eee 8ccc# 8aa\	.	.	.	.	.	.	.	.	.	.	.	.	.
8A 8AA/J	8ggg 8eee 8ccc# 8aa\J	.	8A\	.	.	8A\	.	.	8c#\	.	.	8e\	wszech-	.
=79	=79	=79	=79	=79	=79	=79	=79	=79	=79	=79	=79	=79	=79	=79
!	!	!	!	!	!	!	!	!	!	!	!	!LO:TX:a:t=P::problem=nuty w takcie poprawione przez głównego skryptora; przed poprawieniem&colon; 4.f#, 4.f#	!	!
8D 8DD/L	8fff# 8ddd 8aa\L	.	4.D\	.	.	4.A\	.	.	4.d\	.	.	4.f#\	-ży-	.
8D 8DD/	8fff# 8ddd 8aa\	.	.	.	.	.	.	.	.	.	.	.	.	.
8D 8DD/J	8fff# 8ddd 8aa\	.	.	.	.	.	.	.	.	.	.	.	.	.
8F# 8FF#/L	8fff# 8ddd 8aa\	.	4F#\	.	.	4A\	.	.	4d\	.	.	4f#\	-cie	.
8F# 8FF#/	8fff# 8ddd 8aa\	.	.	.	.	.	.	.	.	.	.	.	.	.
8F# 8FF#/J	8fff# 8ddd 8aa\J	.	8F#\	.	.	8A\	.	.	8d\	.	.	8f#\	bu-	.
=80	=80	=80	=80	=80	=80	=80	=80	=80	=80	=80	=80	=80	=80	=80
!	!	!	!	!	!	!	!	!	!	!	!	!LO:TX:a:t=P::problem=tekst poprawiony przez głównego skryptora; przed poprawieniem&colon; bu-du-ją	!	!
!	!	!	!LO:TX:a:t=P::problem=nuty w takcie poprawione przez głównego skryptora; przed poprawieniem&colon;4.A, 4AA, 8AA	!	!	!LO:TX:a:t=P::problem=nuty w takcie poprawione przez głównego skryptora; przed poprawieniem&colon;4.A, 4A, 8A	!	!	!LO:TX:a:t=P::problem=nuty w takcie poprawione przez głównego skryptora; przed poprawieniem&colon;4.c, 4c, 8c	!	!	!LO:TX:a:t=P::problem=nuty w takcie poprawione przez głównego skryptora; przed poprawieniem&colon; 4.e, 4e, 8e	!	!
8A 8AA/L	8eee 8ccc# 8aa 8gg\L	.	4.A\	.	.	4.A\	.	.	4.c#\	.	.	4.e\	-du-	.
8A 8AA/	8eee 8ccc# 8aa 8gg\	.	.	.	.	.	.	.	.	.	.	.	.	.
8A 8AA/	8eee 8ccc# 8aa 8gg\	.	.	.	.	.	.	.	.	.	.	.	.	.
!	!	!	!	!	!	!	!	!LO:TX:t=P:problem=przekreślona ósemka na końcu taktu	!	!	!	!	!	!
8A 8AA/	8eee 8ccc# 8aa 8gg\	.	4.AA/	.	.	4.A\	.	.	4.c#\	.	.	4.e\	-ją	.
8A 8AA/	8eee 8ccc# 8aa 8gg\	.	.	.	.	.	.	.	.	.	.	.	.	.
8A 8AA/J	8eee 8ccc# 8aa 8gg\J	.	.	.	.	.	.	.	.	.	.	.	.	.
!!LO:PB:g=original
=81	=81	=81	=81	=81	=81	=81	=81	=81	=81	=81	=81	=81	=81	=81
*Xtremolo	*	*	*	*	*	*	*	*	*	*	*	*	*	*
8A 8D\	8ddd 8aa 8ff#\	.	4D\	świat	.	4F#\	.	.	4A/	.	.	4d\	świat	.
*	*X8va	*	*	*	*	*	*	*	*	*	*	*	*	*
8f#L 8F#\	8fff#L 8ff#\	.	.	.	.	.	.	.	.	.	.	.	.	.
8AJ 8AA\	8aaJ 8a\	.	8r	.	.	8r	.	.	8r	.	.	8r	.	.
8dL 8D\	8dddL 8dd\	.	4r	.	.	4r	.	.	4r	.	.	4r	.	.
8F# 8FF#\	8ff# 8f#\	.	.	.	.	.	.	.	.	.	.	.	.	.
8AJ 8AA\	8aaJ 8a\	.	8r	.	.	8r	.	.	8r	.	.	8r	.	.
=82	=82	=82	=82	=82	=82	=82	=82	=82	=82	=82	=82	=82	=82	=82
*	*	*	*	*	*	*	*	*	*	*ij	*	*	*	*
8D 8DD/	8dd 8d/	.	4.d\	czte-	.	4.d\	czte-	.	4.d\	czte-	.	4.f#\	czte-	.
8AL 8F# 8D\	16cc#\LL	.	.	.	.	.	.	.	.	.	.	.	.	.
.	16dd\	.	.	.	.	.	.	.	.	.	.	.	.	.
8AJ 8F# 8D\	16ff#\	.	.	.	.	.	.	.	.	.	.	.	.	.
.	16dd\JJ	.	.	.	.	.	.	.	.	.	.	.	.	.
*tremolo	*	*	*	*	*	*	*	*	*	*	*	*	*	*
8A 8F# 8D\L	16aa\LL	.	4d\	-ry	.	4d\	-ry	.	4d\	-ry	.	4f#\	-ry	.
.	16ff#\	.	.	.	.	.	.	.	.	.	.	.	.	.
8A 8F# 8D\	16ddd\	.	.	.	.	.	.	.	.	.	.	.	.	.
.	16aa\J	.	.	.	.	.	.	.	.	.	.	.	.	.
8A 8F# 8D\J	8fff#\J	.	8d\	ży-	.	8d\	ży-	.	8d\	ży-	.	8f#\	ży-	.
=83	=83	=83	=83	=83	=83	=83	=83	=83	=83	=83	=83	=83	=83	=83
8B 8F# 8D 8BB\L	8b\L	.	4.B\	-wio-	.	4.B\	-wio-	.	4.d\	-wio-	.	4.f#\	-wio-	.
8B 8F# 8D 8BB\	16a#X\L	.	.	.	.	.	.	.	.	.	.	.	.	.
.	16b\	.	.	.	.	.	.	.	.	.	.	.	.	.
8B 8F# 8D 8BB\	16dd\	.	.	.	.	.	.	.	.	.	.	.	.	.
.	16b\JJ	.	.	.	.	.	.	.	.	.	.	.	.	.
8B 8F# 8D 8BB\	16ff#\LL	.	4.B\	-ły	.	4.B\	-ły	.	4.d\	-ły	.	4.f#\	-ły	.
.	16dd\	.	.	.	.	.	.	.	.	.	.	.	.	.
8B 8F# 8D 8BB\	16bb\	.	.	.	.	.	.	.	.	.	.	.	.	.
.	16ff#\J	.	.	.	.	.	.	.	.	.	.	.	.	.
8B 8F# 8D 8BB\J	8ddd\J	.	.	.	.	.	.	.	.	.	.	.	.	.
=84	=84	=84	=84	=84	=84	=84	=84	=84	=84	=84	=84	=84	=84	=84
8G 8D 8BB 8GG/L	8g\L	.	4.G\	przez	.	4.B\	przez	.	4.d\	przez	.	4.g\	przez	.
8G 8D 8BB 8GG/	16f#\L	.	.	.	.	.	.	.	.	.	.	.	.	.
.	16g\	.	.	.	.	.	.	.	.	.	.	.	.	.
8G 8D 8BB 8GG/	16b\	.	.	.	.	.	.	.	.	.	.	.	.	.
.	16g\JJ	.	.	.	.	.	.	.	.	.	.	.	.	.
8G 8D 8BB 8GG/	16dd\LL	.	4G\	wier-	.	4B\	wier-	.	4d\	wier-	.	4g\	wier-	.
.	16b\	.	.	.	.	.	.	.	.	.	.	.	.	.
8G 8D 8BB 8GG/	16gg\	.	.	.	.	.	.	.	.	.	.	.	.	.
.	16dd\J	.	.	.	.	.	.	.	.	.	.	.	.	.
8G 8D 8BB 8GG/J	8bb\J	.	8G\	-ny	.	8B\	-ny	.	8d\	-ny	.	8g\	-ny	.
=85	=85	=85	=85	=85	=85	=85	=85	=85	=85	=85	=85	=85	=85	=85
8E 8BB 8GG 8EE/L	8ee\L	.	2.E\	zbrat	.	2.B\	zbrat	.	2.e\	zbrat	.	2.g\	zbrat	.
8E 8BB 8GG 8EE/	16dd#X\L	.	.	.	.	.	.	.	.	.	.	.	.	.
.	16ee\	.	.	.	.	.	.	.	.	.	.	.	.	.
8E 8BB 8GG 8EE/	16gg\	.	.	.	.	.	.	.	.	.	.	.	.	.
.	16ee\JJ	.	.	.	.	.	.	.	.	.	.	.	.	.
8E 8BB 8GG 8EE/	16bb\LL	.	.	.	.	.	.	.	.	.	.	.	.	.
.	16gg\	.	.	.	.	.	.	.	.	.	.	.	.	.
8E 8BB 8GG 8EE/	16eee\	.	.	.	.	.	.	.	.	.	.	.	.	.
.	16bb\J	.	.	.	.	.	.	.	.	.	.	.	.	.
8E 8BB 8GG 8EE/J	8ggg\J	.	.	.	.	.	.	.	.	.	.	.	.	.
=86	=86	=86	=86	=86	=86	=86	=86	=86	=86	=86	=86	=86	=86	=86
8A 8E 8C# 8AA/L	(>16eee\LL	.	4.A\	two-	.	4.A\	two-	.	4.c#\	two-	.	4.e\	two-	.
.	16ddd#X\	.	.	.	.	.	.	.	.	.	.	.	.	.
8A 8E 8C# 8AA/	16fff#\	.	.	.	.	.	.	.	.	.	.	.	.	.
.	16eee\	.	.	.	.	.	.	.	.	.	.	.	.	.
8A 8E 8C# 8AA/	16ccc#\	.	.	.	.	.	.	.	.	.	.	.	.	.
.	16aa\JJ)	.	.	.	.	.	.	.	.	.	.	.	.	.
*	*rep	*	*	*	*	*	*	*	*	*	*	*	*	*
8A 8E 8C# 8AA/	(>16eee\LL	.	4A\	-rzą	.	4A\	-rzą	.	4c#\	-rzą	.	4e\	-rzą	.
.	16ddd#\	.	.	.	.	.	.	.	.	.	.	.	.	.
8A 8E 8C# 8AA/	16fff#\	.	.	.	.	.	.	.	.	.	.	.	.	.
.	16eee\	.	.	.	.	.	.	.	.	.	.	.	.	.
8A 8E 8C# 8AA/J	16ccc#\	.	8A\	wszech-	.	8A\	wszech-	.	8c#\	wszech-	.	8e\	wszech-	.
.	16aa\JJ)	.	.	.	.	.	.	.	.	.	.	.	.	.
*	*Xrep	*	*	*	*	*	*	*	*	*	*	*	*	*
!!LO:LB:g=original
=87	=87	=87	=87	=87	=87	=87	=87	=87	=87	=87	=87	=87	=87	=87
*	*8va	*	*	*	*	*	*	*	*	*	*	*	*	*
8A 8F# 8D\L	16aaa\LL	.	4.D\	-ży-	.	4.A\	-ży-	.	4.d\	-ży-	.	4.f#\	-ży-	.
.	16ggg#X\	.	.	.	.	.	.	.	.	.	.	.	.	.
8A 8F# 8D\	16bbb\	.	.	.	.	.	.	.	.	.	.	.	.	.
.	16aaa\	.	.	.	.	.	.	.	.	.	.	.	.	.
8A 8F# 8D\J	16fff#\	.	.	.	.	.	.	.	.	.	.	.	.	.
.	16ddd\JJ	.	.	.	.	.	.	.	.	.	.	.	.	.
*	*X8va	*	*	*	*	*	*	*	*	*	*	*	*	*
!	!LO:TX:i:a:t=loco	!	!	!	!	!	!	!	!	!	!	!	!	!
8F# 8FF#/L	16aa\LL	.	4.F#\	-cie	.	4.A\	-cie	.	4.d\	-cie	.	4.f#\	-cie	.
.	16gg#\	.	.	.	.	.	.	.	.	.	.	.	.	.
8F# 8FF#/	16bb\	.	.	.	.	.	.	.	.	.	.	.	.	.
.	16aa\	.	.	.	.	.	.	.	.	.	.	.	.	.
8F# 8FF#/J	16ff#\	.	.	.	.	.	.	.	.	.	.	.	.	.
.	16dd\JJ	.	.	.	.	.	.	.	.	.	.	.	.	.
*Xtremolo	*	*	*	*	*	*	*	*	*	*	*	*	*	*
=88	=88	=88	=88	=88	=88	=88	=88	=88	=88	=88	=88	=88	=88	=88
8AL 8AA\	16cc#\LL	.	4.A\	bu-	.	4.A\	bu-	.	4.c#\	bu-	.	4.e\	bu-	.
.	16b\	.	.	.	.	.	.	.	.	.	.	.	.	.
8G 8E 8AA\	16a\	.	.	.	.	.	.	.	.	.	.	.	.	.
.	16b\	.	.	.	.	.	.	.	.	.	.	.	.	.
8GJ 8E 8AA\	16cc#\	.	.	.	.	.	.	.	.	.	.	.	.	.
.	16dd\JJ	.	.	.	.	.	.	.	.	.	.	.	.	.
*tremolo	*	*	*	*	*	*	*	*	*	*	*	*	*	*
8G 8E 8AA\L	16ee\LL	.	4AA/	-du-	.	4A\	-du-	.	4c#\	-du-	.	4e\	-du-	.
.	16ff#\	.	.	.	.	.	.	.	.	.	.	.	.	.
8G 8E 8AA\	16gg\	.	.	.	.	.	.	.	.	.	.	.	.	.
.	16aa\	.	.	.	.	.	.	.	.	.	.	.	.	.
8G 8E 8AA\J	16bb\	.	8AA/	-ją	.	8A\	-ją	.	8c#\	-ją	.	8e\	-ją	.
.	16ccc#\JJ	.	.	.	.	.	.	.	.	.	.	.	.	.
=89	=89	=89	=89	=89	=89	=89	=89	=89	=89	=89	=89	=89	=89	=89
8F#L 8D\	4ddd\	.	4D\	świat	.	4F#\	świat	.	4A/	świat	.	4d\	świat	.
8F#\	.	.	.	.	.	.	.	.	.	.	.	.	.	.
8D\J	8r	.	8r	.	.	8r	.	.	8r	.	.	8r	.	.
4.A 4.E 4.AA\	(>16gg#X\LL	<	8A\	bu-	.	8A\	bu-	.	8c#\	bu-	.	8e\	bu-	.
.	16aa\	.	.	.	.	.	.	.	.	.	.	.	.	.
.	16aa#X\	.	8A\	-du-	.	8A\	-du-	.	8c#\	-du-	.	8e\	-du-	.
.	16bb\	.	.	.	.	.	.	.	.	.	.	.	.	.
.	16bb#X\	.	8A\	-ją	.	8A\	-ją	.	8c#\	-ją	.	8e\	-ją	.
.	16ccc#\JJ	[	.	.	.	.	.	.	.	.	.	.	.	.
=90	=90	=90	=90	=90	=90	=90	=90	=90	=90	=90	=90	=90	=90	=90
8AL 8F# 8D\	4ddd\)	.	4D\	świat	.	4A\	świat	.	4d\	świat	.	4f#\	świat	.
8F#\	.	.	.	.	.	.	.	.	.	.	.	.	.	.
8D\J	8r	.	8r	.	.	8r	.	.	8r	.	.	8r	.	.
4.A 4.E 4.AA\	(>16gg#X\LL	.	8A\	bu-	.	8A\	bu-	.	8c#\	bu-	.	8e\	bu-	.
.	16aa\	.	.	.	.	.	.	.	.	.	.	.	.	.
.	16aa#X\	.	8A\	-du-	.	8A\	-du-	.	8c#\	-du-	.	8e\	-du-	.
.	16bb\	.	.	.	.	.	.	.	.	.	.	.	.	.
.	16bb#X\	.	8A\	-ją	.	8A\	-ją	.	8c#\	-ją	.	8e\	-ją	.
.	16ccc#\JJ	.	.	.	.	.	.	.	.	.	.	.	.	.
=91	=91	=91	=91	=91	=91	=91	=91	=91	=91	=91	=91	=91	=91	=91
8AL 8F# 8D\	4ddd\)	.	4D\	świat	.	4A\	świat	.	4d\	świat	.	4f#\	świat	.
8F#\	.	.	.	.	.	.	.	.	.	.	.	.	.	.
8D\J	8r	.	8r	.	.	8r	.	.	8r	.	.	8r	.	.
*	*rep	*	*	*	*	*	*	*	*	*	*	*	*	*
4.A 4.E 4.AA\	(>16gg#X\LL	.	8A\	bu-	.	8A\	bu-	.	8c#\	bu-	.	8e\	bu-	.
.	16aa\	.	.	.	.	.	.	.	.	.	.	.	.	.
.	16aa#X\	.	8A\	-du-	.	8A\	-du-	.	8c#\	-du-	.	8e\	-du-	.
.	16bb\	.	.	.	.	.	.	.	.	.	.	.	.	.
.	16bb#X\	.	8A\	-ją	.	8A\	-ją	.	8c#\	-ją	.	8e\	-ją	.
.	16ccc#\JJ	.	.	.	.	.	.	.	.	.	.	.	.	.
*	*Xrep	*	*	*	*	*	*	*	*	*	*	*	*	*
!!LO:PB:g=original
=92	=92	=92	=92	=92	=92	=92	=92	=92	=92	=92	=92	=92	=92	=92
*rep	*rep	*	*	*	*	*	*	*	*	*	*	*	*	*
8AL 8F# 8D\	4ddd\)	.	4D\	świat	.	4A\	świat	.	4d\	świat	.	4f#\	świat	.
8F#\	.	.	.	.	.	.	.	.	.	.	.	.	.	.
8D\J	8r	.	8r	.	.	8r	.	.	8r	.	.	8r	.	.
4.A 4.E 4.AA\	(16gg#X\LL	.	8A\	bu-	.	8A\	bu-	.	8c#\	bu-	.	8e\	bu-	.
.	16aa\	.	.	.	.	.	.	.	.	.	.	.	.	.
.	16aa#X\	.	8A\	-du-	.	8A\	-du-	.	8c#\	-du-	.	8e\	-du-	.
.	16bb\	.	.	.	.	.	.	.	.	.	.	.	.	.
.	16bb#X\	.	8A\	-ją	.	8A\	-ją	.	8c#\	-ją	.	8e\	-ją	.
.	16ccc#\JJ	.	.	.	.	.	.	.	.	.	.	.	.	.
*Xrep	*Xrep	*	*	*	*	*	*	*	*	*	*	*	*	*
=93	=93	=93	=93	=93	=93	=93	=93	=93	=93	=93	=93	=93	=93	=93
8A 8F# 8D\L	8ddd\L)	.	[>2.D\	świat	.	[>2.A\	świat	.	[>2.d\	świat	.	[>2.f#\	świat	.
*	*	*	*	*Xij	*	*	*Xij	*	*	*Xij	*	*	*	*
8A 8F# 8D\	(>16bbb\L	.	.	.	.	.	.	.	.	.	.	.	.	.
.	16fff#\	.	.	.	.	.	.	.	.	.	.	.	.	.
8A 8F# 8D\	16ddd\	.	.	.	.	.	.	.	.	.	.	.	.	.
.	16aa\JJ)	.	.	.	.	.	.	.	.	.	.	.	.	.
8A 8F# 8D\	(>16ddd\LL	.	.	.	.	.	.	.	.	.	.	.	.	.
.	16ccc#\	.	.	.	.	.	.	.	.	.	.	.	.	.
8A 8F# 8D\	16eee\	.	.	.	.	.	.	.	.	.	.	.	.	.
.	16ddd\	.	.	.	.	.	.	.	.	.	.	.	.	.
8A 8F# 8D\J	16aa\	.	.	.	.	.	.	.	.	.	.	.	.	.
.	16ff#\JJ)	.	.	.	.	.	.	.	.	.	.	.	.	.
=94	=94	=94	=94	=94	=94	=94	=94	=94	=94	=94	=94	=94	=94	=94
*rep	*	*	*	*	*	*	*	*	*	*	*	*	*	*
8A 8F# 8D\L	(>16aa\LL	.	2.D\_	.	.	2.A\_	.	.	2.d\_	.	.	2.f#\_	.	.
.	16gg#X\	.	.	.	.	.	.	.	.	.	.	.	.	.
8A 8F# 8D\	16bb\	.	.	.	.	.	.	.	.	.	.	.	.	.
.	16aa\	.	.	.	.	.	.	.	.	.	.	.	.	.
8A 8F# 8D\	16ff#\	.	.	.	.	.	.	.	.	.	.	.	.	.
.	16dd\JJ)	.	.	.	.	.	.	.	.	.	.	.	.	.
8A 8F# 8D\	(>16ff#\LL	.	.	.	.	.	.	.	.	.	.	.	.	.
.	16ee#X\	.	.	.	.	.	.	.	.	.	.	.	.	.
8A 8F# 8D\	16ggn\	.	.	.	.	.	.	.	.	.	.	.	.	.
.	16ff#\	.	.	.	.	.	.	.	.	.	.	.	.	.
8A 8F# 8D\J	16dd\	.	.	.	.	.	.	.	.	.	.	.	.	.
.	16a\JJ)	.	.	.	.	.	.	.	.	.	.	.	.	.
*Xrep	*	*	*	*	*	*	*	*	*	*	*	*	*	*
=95	=95	=95	=95	=95	=95	=95	=95	=95	=95	=95	=95	=95	=95	=95
*rep	*	*	*	*	*	*	*	*	*	*	*	*	*	*
8A 8F# 8D\L	(>16dd\LL	.	4D\]	.	.	4A\]	.	.	4d\]	.	.	4f#\]	.	.
.	16cc#\	.	.	.	.	.	.	.	.	.	.	.	.	.
8A 8F# 8D\	16ee\	.	.	.	.	.	.	.	.	.	.	.	.	.
.	16dd\	.	.	.	.	.	.	.	.	.	.	.	.	.
8A 8F# 8D\	16a\	.	8r	.	.	8r	.	.	8r	.	.	8r	.	.
.	16f#\JJ)	.	.	.	.	.	.	.	.	.	.	.	.	.
8A 8F# 8D\	(<16a/LL	.	4r	.	.	4r	.	.	4r	.	.	4r	.	.
.	16g#X/	.	.	.	.	.	.	.	.	.	.	.	.	.
8A 8F# 8D\	16b/	.	.	.	.	.	.	.	.	.	.	.	.	.
.	16a/	.	.	.	.	.	.	.	.	.	.	.	.	.
8A 8F# 8D\J	16f#/	.	8r	.	.	8r	.	.	8r	.	.	8r	.	.
.	16d/JJ)	.	.	.	.	.	.	.	.	.	.	.	.	.
*Xrep	*	*	*	*	*	*	*	*	*	*	*	*	*	*
=96	=96	=96	=96	=96	=96	=96	=96	=96	=96	=96	=96	=96	=96	=96
8D 8AA 8FF# 8DD/L	(<16f#/LL	.	2.ryy	.	.	2.ryy	.	.	2.ryy	.	.	2.ryy	.	.
.	16e#X/	.	.	.	.	.	.	.	.	.	.	.	.	.
8D 8AA 8FF# 8DD/	16g/	.	.	.	.	.	.	.	.	.	.	.	.	.
.	16f#/	.	.	.	.	.	.	.	.	.	.	.	.	.
8D 8AA 8FF# 8DD/	16d/	.	.	.	.	.	.	.	.	.	.	.	.	.
.	16A/JJ)	.	.	.	.	.	.	.	.	.	.	.	.	.
8D 8AA 8FF# 8DD/	(<16d/LL	.	.	.	.	.	.	.	.	.	.	.	.	.
.	16c#/	.	.	.	.	.	.	.	.	.	.	.	.	.
8D 8AA 8FF# 8DD/	16e#/	.	.	.	.	.	.	.	.	.	.	.	.	.
.	16d/	.	.	.	.	.	.	.	.	.	.	.	.	.
8D 8AA 8FF# 8DD/J	16A</	.	.	.	.	.	.	.	.	.	.	.	.	.
.	16F#</JJ)	.	.	.	.	.	.	.	.	.	.	.	.	.
*Xtremolo	*	*	*	*	*	*	*	*	*	*	*	*	*	*
=97	=97	=97	=97	=97	=97	=97	=97	=97	=97	=97	=97	=97	=97	=97
4AA 4FF# 4DD\	4D</	.	2.ryy	.	.	2.ryy	.	.	2.ryy	.	.	2.ryy	.	.
8r	8ryy	.	.	.	.	.	.	.	.	.	.	.	.	.
4d 4D\	4ddd 4aa 4ff# 4dd\	.	.	.	.	.	.	.	.	.	.	.	.	.
8r	8r	.	.	.	.	.	.	.	.	.	.	.	.	.
=98	=98	=98	=98	=98	=98	=98	=98	=98	=98	=98	=98	=98	=98	=98
4D 4DD/	4d/	.	2.ryy	.	.	2.ryy	.	.	2.ryy	.	.	2.ryy	.	.
8r	8r	.	.	.	.	.	.	.	.	.	.	.	.	.
4d 4D\	4fff# 4ddd 4aa 4ff#\	.	.	.	.	.	.	.	.	.	.	.	.	.
8r	8r	.	.	.	.	.	.	.	.	.	.	.	.	.
!!LO:LB:g=original
=99	=99	=99	=99	=99	=99	=99	=99	=99	=99	=99	=99	=99	=99	=99
!	!	!	!LO:TX:a:t=P:problem=napis "Fine" na pięciolinii za kreską	!	!	!	!	!	!	!	!	!	!	!
!	!	!	!LO:TX:b:i:t=Fine	!	!	!	!	!	!	!	!	!	!	!
2.D 2.DD\	2.d 2.A< 2.F#<;>/	.	2.r	.	.	2.r	.	.	2.r	.	.	2.r	.	.
==	==	==	==	==	==	==	==	==	==	==	==	==	==	==
*-	*-	*-	*-	*-	*-	*-	*-	*-	*-	*-	*-	*-	*-	*-
!!!system-decoration: s1,s2,s3,s4{(s5,s6)}
!!!RDF**kern: > = above
!!!RDF**kern: < = below
!!!EED: Antoni Szymański
!!!EST: 2021-04-16
!!!ENC: Anastazja Marusiak
!!!END: 2021-04-07
